/* XPM */
static char*blind[]={
"56 35 2 1",
"# c #000000",
". c None",
"........................................................",
"........................................................",
"........................................................",
"........................................................",
"........................................................",
"........................................................",
"........................................................",
"........................................................",
"........................................................",
"........................................................",
"........................................................",
"........................................................",
"...................##################...................",
"..................####################..................",
"########################################################",
"########################################################",
"########################################################",
"########################################################",
"########################################################",
"########################################################",
"########################################################",
"..................####################..................",
"...................##################...................",
"........................................................",
"........................................................",
"........................................................",
"........................................................",
"........................................................",
"........................................................",
"........................................................",
"........................................................",
"........................................................",
"........................................................",
"........................................................",
"........................................................"};
