/* XPM */
static char*diagonale_links_tl[]={
"56 35 3 1",
"a c #000000",
". c None",
"# c #585858",
"........................................................",
"........................................................",
"........................................................",
"........................................................",
"........................................................",
"........................................................",
"........................................................",
"........................................................",
"...................#####................................",
"...................########.............................",
".......................#####............................",
"..........................###...........................",
"...........................###..........................",
"............................##..........................",
"..........................a..##.........................",
".........................aa...##........................",
".......................aaaaa..##........................",
".....................aaaaaaa...##.......................",
"....................aaaaaaaaa...##......................",
"..................aaaaaaaaaaaa..###.....................",
"................aaaaaaaaaaaaaa...##.....................",
"...............aaaaaaaaaaaaa.....##.....................",
".............aaaaaaaaaaaaaa......##.....................",
"............aaaaaaaaaaaaa........##.....................",
"..........aaaaaaaaaaaaa..........##.....................",
"........aaaaaaaaaaaaaa...........##.....................",
".......aaaaaaaaaaaaa.............##.....................",
".....aaaaaaaaaaaaa...............##.....................",
"....aaaaaaaaaaaaa.......................................",
"..aaaaaaaaaaaaa.........................................",
"aaaaaaaaaaaaaa..........................................",
"aaaaaaaaaaaa............................................",
"aaaaaaaaaa..............................................",
"aaaaaaaaa...............................................",
"aaaaaaa................................................."};
