/* XPM */
static char*diagonale_links[]={
"56 35 2 1",
"# c #000000",
". c None",
".................................................#######",
"...............................................#########",
"..............................................##########",
"............................................############",
"..........................................##############",
".........................................#############..",
".......................................#############....",
"......................................#############.....",
"....................................#############.......",
"..................................##############........",
".................................#############..........",
"...............................#############............",
".............................##############.............",
"............................#############...............",
"..........................##############................",
".........................#############..................",
".......................#############....................",
".....................##############.....................",
"....................#############.......................",
"..................#############.........................",
"................##############..........................",
"...............#############............................",
".............##############.............................",
"............#############...............................",
"..........#############.................................",
"........##############..................................",
".......#############....................................",
".....#############......................................",
"....#############.......................................",
"..#############.........................................",
"##############..........................................",
"############............................................",
"##########..............................................",
"#########...............................................",
"#######................................................."};
