/* XPM */
static char *diagonale_rechts_tl[] = {
/* width height num_colors chars_per_pixel */
"    56    35        3            1",
/* colors */
"# c #000000",
". c None",
"a c #585858",
/* pixels */
"........................................................",
"........................................................",
"........................................................",
"........................................................",
"........................................................",
"........................................................",
"........................................................",
"........................................................",
"................................aaaaa...................",
".............................aaaaaaaa...................",
"............................aaaaa.......................",
"...........................aaa..........................",
"..........................aaa...........................",
"..........................aa............................",
".........................aa..#..........................",
"........................aa...##.........................",
"........................aa..#####.......................",
".......................aa...#######.....................",
"......................aa...#########....................",
".....................aaa..############..................",
".....................aa...##############................",
".....................aa.....#############...............",
".....................aa......##############.............",
".....................aa........#############............",
".....................aa..........#############..........",
".....................aa...........##############........",
".....................aa.............#############.......",
".....................aa...............#############.....",
".......................................#############....",
".........................................#############..",
"..........................................##############",
"............................................############",
"..............................................##########",
"...............................................#########",
".................................................#######"
};
