/* XPM */
static char*drehscheibe[]={
"56 35 6 1",
"d c #808080",
"# c #000000",
"a c #800000",
". c None",
"b c #dcdcdc",
"c c #ffffff",
"#######..........................................#######",
"#########................aaaaaaa...............#########",
"##########............aaaaaaaaaaaaa...........##########",
"############........aaaaadddddddaaaaa.......############",
"##############.....aaadddddddddddddaaa.....#############",
"..#############..aaaddddddddddaadddaaaaa.#############..",
"....###########baaaddddddddddaaaadaaacaaab###########...",
".....##########baaddddddddddaaaaaaaacaaaab#########.....",
".......#######baaddddddddddaaaaaaaacaacaaab#######......",
"........#####baaddddddddddaaaaaaaacaacaaaaab####........",
"..........###baaddddddddddaaaaaaacaacaaadaab##..........",
"............baaddddddddddddaaaaacaacaaadddaab...........",
".............aadddddddddddddaaacaacaaaddddaa............",
".............aaddddddddddddaaacaacaaadddddaa............",
"###########baaddddddddddddaaacaacaaadddddddaab##########",
"###########baadddddddddddaaacaacaaaddddddddaab##########",
"###########baaddddddddddaaacaacaaadddddddddaab##########",
"###########baadddddddddaaacaacaaaddddddddddaab##########",
"###########baaddddddddaaacaacaaadddddddddddaab##########",
"###########baadddddddaaacaacaaaddddddddddddaab##########",
"###########baaddddddaaacaacaaadddddddddddddaab##########",
".............aaddddaaacaacaaadddddddddddddaa............",
".............aadddaaacaacaaaddddddddddddddaa............",
"............baaddaaacaacaaadddddddddddddddaab...........",
"..........###baaaaacaacaaadddddddddddddddaab##..........",
"........#####baaaacaacaaaddddddddddddddddaab####........",
".......#######baacaacaaaddddddddddddddddaab#######......",
".....##########baaacaaaddddddddddddddddaab#########.....",
"....###########baaaaaaddddddddddddddddaaab###########...",
"..#############..aaaaddddddddddddddddaaa.#############..",
"##############.....aaadddddddddddddaaa.....#############",
"############........aaaaadddddddaaaaa.......############",
"##########............aaaaaaaaaaaaa...........##########",
"#########................aaaaaaa...............#########",
"#######..........................................#######"};
