/* XPM */
static char*entkoppler_up[]={
"56 35 2 1",
". c None",
"a c #ffffff",
"........................................................",
"........................................................",
"........................................................",
"...........................aa...........................",
"..........................aaaa..........................",
".........................aaaaaa.........................",
"........................aaaaaaaa........................",
".......................aaaaaaaaaa.......................",
"......................aaaaaaaaaaaa......................",
".....................aaaaaaaaaaaaaa.....................",
"........................................................",
"........................................................",
"........................................................",
"........................................................",
"........................................................",
"........................................................",
"........................................................",
"........................................................",
"........................................................",
"........................................................",
"........................................................",
"........................................................",
"........................................................",
"........................................................",
"........................................................",
"........................................................",
"........................................................",
"........................................................",
"........................................................",
"........................................................",
"........................................................",
"........................................................",
"........................................................",
"........................................................",
"........................................................"};
