/* XPM */
static char*gerade_tl[]={
"56 35 3 1",
"a c #000000",
". c None",
"# c #585858",
"........................................................",
"........................................................",
"........................................................",
"........................................................",
".......................##...............................",
"........................##..............................",
".........................##.............................",
"..........................##............................",
"...........................##...........................",
"............................##..........................",
".............................##.........................",
"..............................##........................",
"..............................##........................",
"..............................##........................",
"aaaaaaaaaaaaaaaaaaaaaaaaaaaa..##........................",
"aaaaaaaaaaaaaaaaaaaaaaaaaaaa..##........................",
"aaaaaaaaaaaaaaaaaaaaaaaaaaaa..##........................",
"aaaaaaaaaaaaaaaaaaaaaaaaaaaa..##........................",
"aaaaaaaaaaaaaaaaaaaaaaaaaaaa..##........................",
"aaaaaaaaaaaaaaaaaaaaaaaaaaaa..##........................",
"aaaaaaaaaaaaaaaaaaaaaaaaaaaa..##........................",
"..............................##........................",
"..............................##........................",
"..............................##........................",
".............................##.........................",
"............................##..........................",
"...........................##...........................",
"..........................##............................",
".........................##.............................",
"........................##..............................",
".......................##...............................",
"........................................................",
"........................................................",
"........................................................",
"........................................................"};
