/* XPM */
static char*haus_2[]={
"56 35 3 1",
"# c #000000",
". c None",
"a c #c00000",
"........................................................",
"........................................................",
"........................................................",
"........................................................",
"........................................................",
"..........................#########################.....",
"..........................##aaaaaaaaaaaaaaaaaaaaa##.....",
"..........................#a#aaaaaaaaaaaaaaaaaaa#a#.....",
"..........................#aa#aaaaaaaaaaaaaaaaa#aa#.....",
"..........................#aaa#aaaaaaaaaaaaaaa#aaa#####.",
"..........................#aaaa#aaaaaaaaaaaaa#aaaa#aaa#.",
"..........................#aaaaa#aaaaaaaaaaa#aaaaa#aaa#.",
"..........................#aaaaaa#aaaaaaaaa#aaaaaa#aaa#.",
"..........................#aaaaaaa#aaaaaaa#aaaaaaa#aaa#.",
"..........................#aaaaaaaa#aaaaa#aaaaaaaa#aaa#.",
"..........................#aaaaaaaaa#aaa#aaaaaaaaa#aaa#.",
"..........................#aaaaaaaaaa#a#aaaaaaaaaa#aaa#.",
"..........................#aaaaaaaaaaa#aaaaaaaaaaa#####.",
"..........................#aaaaaaaaaa#a#aaaaaaaaaa#aaa#.",
"..........................#aaaaaaaaa#aaa#aaaaaaaaa#aaa#.",
"..........................#aaaaaaaa#aaaaa#aaaaaaaa#aaa#.",
"..........................#aaaaaaa#aaaaaaa#aaaaaaa#aaa#.",
"..........................#aaaaaa#aaaaaaaaa#aaaaaa#aaa#.",
"..........................#aaaaa#aaaaaaaaaaa#aaaaa#aaa#.",
"..........................#aaaa#aaaaaaaaaaaaa#aaaa#aaa#.",
"..........................#aaa#aaaaaaaaaaaaaaa#aaa#####.",
"..........................#aa#aaaaaaaaaaaaaaaaa#aa#.....",
"..........................#a#aaaaaaaaaaaaaaaaaaa#a#.....",
"..........................##aaaaaaaaaaaaaaaaaaaaa##.....",
"..........................#########################.....",
"........................................................",
"........................................................",
"........................................................",
"........................................................",
"........................................................"};
