/* XPM */
static char*kreuzung_rechts[]={
"56 35 2 1",
"# c #000000",
". c None",
"#######.................................................",
"#########...............................................",
"##########..............................................",
"############............................................",
"##############..........................................",
"..#############.........................................",
"....#############.......................................",
".....#############......................................",
".......#############....................................",
"........##############..................................",
"..........#############.................................",
"............#############...............................",
".............##############.............................",
"...............#############............................",
"########################################################",
"########################################################",
"########################################################",
"########################################################",
"########################################################",
"########################################################",
"########################################################",
"............................#############...............",
".............................##############.............",
"...............................#############............",
".................................#############..........",
"..................................##############........",
"....................................#############.......",
"......................................#############.....",
".......................................#############....",
".........................................#############..",
"..........................................##############",
"............................................############",
"..............................................##########",
"...............................................#########",
".................................................#######"};
