/* XPM */
static char*kreuzung_hose[]={
"56 35 2 1",
"# c #000000",
". c None",
"########.........................................#######",
"#########......................................#########",
"##########....................................##########",
"############................................############",
"##############............................##############",
"..#############..........................#############..",
"....#############......................#############....",
".....#############....................#############.....",
".......#############................#############.......",
"........##############............##############........",
"..........#############..........#############..........",
"............#############......#############............",
".............##############..##############.............",
"...............##########################...............",
"................########################................",
"..................####################..................",
"....................################....................",
".....................##############.....................",
"....................################....................",
"..................####################..................",
"................########################................",
"...............##########################...............",
".............##############..##############.............",
"............#############......#############............",
"..........#############..........#############..........",
"........##############............##############........",
".......#############................#############.......",
".....#############....................#############.....",
"....#############......................#############....",
"..#############..........................#############..",
"##############............................##############",
"############................................############",
"##########....................................##########",
"#########......................................#########",
"#######..........................................#######"};
