/* XPM */
static char* mitte_gelb[]={
"28 35 2 1",
"a c #ffe100",
". c None",
"............................",
"............................",
"............................",
"............................",
"............................",
"............................",
"............................",
"............................",
"............................",
"............................",
"............................",
"............................",
"............................",
"............................",
"............................",
"............................",
".......aaaaaaaaaaaaaa.......",
".......aaaaaaaaaaaaaa.......",
".......aaaaaaaaaaaaaa.......",
"............................",
"............................",
"............................",
"............................",
"............................",
"............................",
"............................",
"............................",
"............................",
"............................",
"............................",
"............................",
"............................",
"............................",
"............................",
"............................"};
