/* XPM */
static char*signal_hs_rot[]={
"56 35 2 1",
". c None",
"a c #ff0000",
"........................................................",
"........................................................",
"........................................................",
"........................................................",
"........................................................",
"........................................................",
"........................................................",
"........................................................",
"........................................................",
"........................................................",
"........................................................",
"........................................................",
"........................................................",
"........................................................",
"........................................................",
"........................................................",
"........................................................",
"........................................................",
"........................................................",
"........................................................",
"........................................................",
"........................................................",
"........................................................",
"........................................................",
"........................................................",
"...................................aaa..................",
"..................................aaaaa.................",
"..................................aaaaa.................",
"..................................aaaaa.................",
"...................................aaa..................",
"........................................................",
"........................................................",
"........................................................",
"........................................................",
"........................................................"};
