/* XPM */
static char *LED_vs0[]={
"56 35 2 1",
". c None",
"a c #ffff00",
"........................................................",
"........................................................",
"........................................................",
"........................................................",
"........................................................",
"........................................................",
"........................................................",
"........................................................",
"........................................................",
"........................................................",
"........................................................",
"........................................................",
"........................................................",
"........................................................",
"........................................................",
"........................................................",
"........................................................",
"........................................................",
"........................................................",
"........................................................",
"........................................................",
"........................................................",
"........................................................",
"........................................................",
"........................................................",
"..............aa........................................",
"..............aa........................................",
"........................................................",
"................aa......................................",
"................aa......................................",
"........................................................",
"........................................................",
"........................................................",
"........................................................",
"........................................................"};
