/* XPM */
static char*signal_hss_sh1[]={
"56 35 3 1",
"a c #ffe100",
". c None",
"b c #ff0000",
"........................................................",
"........................................................",
"........................................................",
"........................................................",
"........................................................",
"........................................................",
"........................................................",
"........................................................",
"........................................................",
"........................................................",
"........................................................",
"........................................................",
"........................................................",
"........................................................",
"........................................................",
"........................................................",
"........................................................",
"........................................................",
"........................................................",
"........................................................",
"........................................................",
"........................................................",
"........................................................",
"........................................................",
"........................................................",
"..................aaa..............bbb..................",
"..................aaaa............bbbbb.................",
"...................aaaa...........bbbbb.................",
"....................aaaa..........bbbbb.................",
".....................aaa...........bbb..................",
"........................................................",
"........................................................",
"........................................................",
"........................................................",
"........................................................"};
