/* XPM */
static char *LED_vs2[]={
"56 35 3 1",
". c None",
"b c #00ff00",
"a c #ffff00",
"........................................................",
"........................................................",
"........................................................",
"........................................................",
"........................................................",
"........................................................",
"........................................................",
"........................................................",
"........................................................",
"........................................................",
"........................................................",
"........................................................",
"........................................................",
"........................................................",
"........................................................",
"........................................................",
"........................................................",
"........................................................",
"........................................................",
"........................................................",
"........................................................",
"........................................................",
"........................................................",
"........................................................",
"........................................................",
"..............aa........................................",
"..............aa........................................",
"........................................................",
".....................bb.................................",
".....................bb.................................",
"........................................................",
"........................................................",
"........................................................",
"........................................................",
"........................................................"};
