/* XPM */
static char*unten_gelb[]={
"28 35 2 1",
"a c #ffe100",
". c None",
"............................",
"............................",
"............................",
"............................",
"............................",
"............................",
"............................",
"............................",
"............................",
"............................",
"............................",
"............................",
"............................",
"............................",
"............................",
"............................",
"............................",
"............................",
"............................",
"............................",
"............................",
"........aa..................",
".......aaaaa................",
".......aaaaaaa..............",
".........aaaaaa.............",
"..........aaaaaaa...........",
"............aaaaaa..........",
".............aaaaaaa........",
"...............aaaaaa.......",
"................aaaa........",
"..................a.........",
"............................",
"............................",
"............................",
"............................"};
