/* XPM */
static char*LED_hp2[]={
"56 35 2 1",
"a c #ffe100",
". c None",
"........................................................",
"........................................................",
"........................................................",
"........................................................",
"........................................................",
"........................................................",
"........................................................",
"........................................................",
"........................................................",
"........................................................",
"........................................................",
"........................................................",
"........................................................",
"........................................................",
"........................................................",
"........................................................",
"........................................................",
"........................................................",
"........................................................",
"........................................................",
"........................................................",
"........................................................",
"........................................................",
"........................................................",
"........................................................",
"............................................aaa.........",
"...........................................aaaaa........",
"...........................................aaaaa........",
"...........................................aaaaa........",
"............................................aaa.........",
"........................................................",
"........................................................",
"........................................................",
"........................................................",
"........................................................"};
