/* XPM */
static char*unten_rot{
"28 35 2 1",
"x c #ff0000",
". c None",
"............................",
"............................",
"............................",
"............................",
"............................",
"............................",
"............................",
"............................",
"............................",
"............................",
"............................",
"............................",
"............................",
"............................",
"............................",
"............................",
"............................",
"............................",
"............................",
"............................",
"............................",
"........xx..................",
".......xxxxx................",
".......xxxxxxx..............",
".........xxxxxx.............",
"..........xxxxxxx...........",
"............xxxxxx..........",
".............xxxxxxx........",
"...............xxxxxx.......",
"................xxxx........",
"..................x.........",
"............................",
"............................",
"............................",
"............................"};
