/* XPM */
static char*mitte_rot[]={
"28 35 2 1",
"x c #ff0000",
". c None",
"............................",
"............................",
"............................",
"............................",
"............................",
"............................",
"............................",
"............................",
"............................",
"............................",
"............................",
"............................",
"............................",
"............................",
"............................",
"............................",
".......xxxxxxxxxxxxxx.......",
".......xxxxxxxxxxxxxx.......",
".......xxxxxxxxxxxxxx.......",
"............................",
"............................",
"............................",
"............................",
"............................",
"............................",
"............................",
"............................",
"............................",
"............................",
"............................",
"............................",
"............................",
"............................",
"............................",
"............................"};
