/* XPM */
static char *LED_vs1[]={
"56 35 2 1",
". c None",
"b c #00ff00",
"........................................................",
"........................................................",
"........................................................",
"........................................................",
"........................................................",
"........................................................",
"........................................................",
"........................................................",
"........................................................",
"........................................................",
"........................................................",
"........................................................",
"........................................................",
"........................................................",
"........................................................",
"........................................................",
"........................................................",
"........................................................",
"........................................................",
"........................................................",
"........................................................",
"........................................................",
"........................................................",
"........................................................",
"........................................................",
"...................bb...................................",
"...................bb...................................",
"........................................................",
".....................bb.................................",
".....................bb.................................",
"........................................................",
"........................................................",
"........................................................",
"........................................................",
"........................................................"};
