/* XPM */
static char*oben_rot[]={
"28 35 2 1",
"x c #ff0000",
". c None",
"............................",
"............................",
"............................",
"............................",
"..................x.........",
"................xxxx........",
"...............xxxxxx.......",
".............xxxxxxx........",
"............xxxxxx..........",
"..........xxxxxxx...........",
".........xxxxxx.............",
".......xxxxxxx..............",
".......xxxxx................",
"........xx..................",
"............................",
"............................",
"............................",
"............................",
"............................",
"............................",
"............................",
"............................",
"............................",
"............................",
"............................",
"............................",
"............................",
"............................",
"............................",
"............................",
"............................",
"............................",
"............................",
"............................",
"............................"};
