/* XPM */
static char*signal_hs_gruen[]={
"56 35 2 1",
"a c #00ff00",
". c None",
"........................................................",
"........................................................",
"........................................................",
"........................................................",
"........................................................",
"........................................................",
"........................................................",
"........................................................",
"........................................................",
"........................................................",
"........................................................",
"........................................................",
"........................................................",
"........................................................",
"........................................................",
"........................................................",
"........................................................",
"........................................................",
"........................................................",
"........................................................",
"........................................................",
"........................................................",
"........................................................",
"........................................................",
"........................................................",
"............................................aaa.........",
"...........................................aaaaa........",
"...........................................aaaaa........",
"...........................................aaaaa........",
"............................................aaa.........",
"........................................................",
"........................................................",
"........................................................",
"........................................................",
"........................................................"};
