/* XPM */
static char*oben_gelb[]={
"28 35 2 1",
"a c #ffe100",
". c None",
"............................",
"............................",
"............................",
"............................",
"..................a.........",
"................aaaa........",
"...............aaaaaa.......",
".............aaaaaaa........",
"............aaaaaa..........",
"..........aaaaaaa...........",
".........aaaaaa.............",
".......aaaaaaa..............",
".......aaaaa................",
"........aa..................",
"............................",
"............................",
"............................",
"............................",
"............................",
"............................",
"............................",
"............................",
"............................",
"............................",
"............................",
"............................",
"............................",
"............................",
"............................",
"............................",
"............................",
"............................",
"............................",
"............................",
"............................"};
