/* XPM */
static char*motor_dc[]={
"56 35 5 1",
"# c #000000",
"b c #303030",
"c c #0000ff",
". c None",
"a c #ff0000",
"........................................................",
"........................................................",
"........................................................",
"........................................................",
"........................................................",
"........................................................",
"........................................................",
"........................................................",
"........................................................",
"........................................................",
"........................................................",
"........................................................",
"........................................................",
"........................................................",
".........................#####..........................",
".......................#########........................",
".....................####.....####......................",
"......a.............#b#.........#b#.....................",
"......a.............##...........##.....................",
"....aaaaa..........##.............##...........ccccc....",
"......a............##.............##....................",
"......a...........##.....#...#.....##...................",
"................aa##.....##.##.....##cc.................",
"....aaaaaaaaaaaaaa##.....#.#.#.....##ccccccccccccccc....",
"................aa##.....#...#.....##cc.................",
"..................##...............##...................",
"...................##....#####....##....................",
"...................##.............##....................",
"....................##...#.#.#...##.....................",
"....................#b#.........#b#.....................",
".....................####.....####......................",
".......................#########........................",
".........................#####..........................",
"........................................................",
"........................................................"};
