/* XPM */
static char*relais_1[]={
"56 35 2 1",
"# c #ffff00",
". c None",
"........................................................",
"........................................................",
"........................................................",
"........................................................",
"........................................................",
"........................................................",
"........................................................",
"........................................................",
"........................................................",
"........................................................",
"........................................................",
"........................................................",
"........................................................",
"........................................................",
".............................................###........",
"............................................#####.......",
"...........................................#######......",
"...........................................#######......",
"...........................................#######......",
"............................................#####.......",
".............................................###........",
"........................................................",
"........................................................",
"........................................................",
"........................................................",
"........................................................",
"........................................................",
"........................................................",
"........................................................",
"........................................................",
"........................................................",
"........................................................",
"........................................................",
"........................................................",
"........................................................"};
