/* XPM */
static char*richtung_1[]={
"56 35 3 1",
"# c #000000",
". c None",
"a c #dcdcdc",
"........................................................",
"........................................................",
"........................................................",
"........................................................",
"........................................................",
"........................................................",
"........................................................",
"........................................................",
"........................................................",
"........................................................",
"........................................................",
"............................................#...........",
"............................................##..........",
"............................................###.........",
"##########################################aa####aa######",
"##########################################aa#####aa#####",
"##########################################aa######aa####",
"##########################################aa#######aa###",
"##########################################aa#######aa###",
"##########################################aa######aa####",
"##########################################aa#####aa#####",
"............................................####........",
"............................................###.........",
"............................................##..........",
"............................................#...........",
"........................................................",
"........................................................",
"........................................................",
"........................................................",
"........................................................",
"........................................................",
"........................................................",
"........................................................",
"........................................................",
"........................................................"};
