/* XPM */
static char * richtung_2_xpm[] = {
"56 35 2 1",
" 	c None",
".	c #000000",
"                                                        ",
" ..                                                   . ",
"  ...                                               ... ",
"   ....                                           ....  ",
"   ......                                       ......  ",
"    .......                                   .......   ",
"     ........                               ........    ",
"      .........                           .........     ",
"       ..........                       ..........      ",
"        ...........                   ...........       ",
"        .............               .............       ",
"         ..............           ..............        ",
"          ...............       ...............         ",
"           ................   ................          ",
"........................................................",
"........................................................",
"........................................................",
"........................................................",
"........................................................",
"........................................................",
"........................................................",
"           ................. .................          ",
"          ................     ................         ",
"         ...............         ...............        ",
"         .............             .............        ",
"        ............                 ............       ",
"       ...........                     ...........      ",
"      ..........                         ..........     ",
"      ........                             ........     ",
"     .......                                 .......    ",
"    ......                                     ......   ",
"    ....                                         .....  ",
"   ...                                             ...  ",
"  ..                                                 .. ",
"                                                        "};
