/* XPM */
static char*schiebebuehne[]={
"56 35 5 1",
"b c #808080",
"c c #000000",
"# c #800000",
". c None",
"a c #ffffff",
"........................................................",
"........................................................",
"........................................................",
"........................................................",
"....###a#a####a#a####a#a####a#a####a#a####a#a#######....",
"....###a#a####a#a####a#a####a#a####a#a####a#a#######....",
"....###a#a####a#a####a#a####a#a####a#a####a#a#######....",
"....##bbbbbb#a#a#bbbbbbbbbbbbbbbbbbbbbbbbbbbbbbbbb##....",
"....##bbbbbb#a#a#bbbbbbbbbbbbbbbbbbbbbbbbbbbbbbbbb##....",
"....##bbbbbb#a#a#bbbbbbbbbbbbbbbbbbbbbbbbbbbbbbbbb##....",
"....##bbbbbb#a#a#bbbbbbbbbbbbbbbbbbbbbbbbbbbbbbbbb##....",
"....##bbbbbb#a#a#bbbbbbbbbbbbbbbbbbbbbbbbbbbbbbbbb##....",
"....##bbbbbb#a#a#bbbbbbbbbbbbbbbbbbbbbbbbbbbbbbbbb##....",
"....##bbbbbb#a#a#bbbbbbbbbbbbbbbbbbbbbbbbbbbbbbbbb##....",
"cccc#bbbbbb##a#a#bbbbbbbbbbbbbbbbbbbbbbbbbbbbbbbbb##cccc",
"cccc#bbbbbb##a#a#bbbbbbbbbbbbbbbbbbbbbbbbbbbbbbbbb##cccc",
"cccc#bbbbbb##a#a#bbbbbbbbbbbbbbbbbbbbbbbbbbbbbbbbb##cccc",
"cccc#bbbbbb##a#a#bbbbbbbbbbbbbbbbbbbbbbbbbbbbbbbbb##cccc",
"cccc#bbbbbb##a#a#bbbbbbbbbbbbbbbbbbbbbbbbbbbbbbbbb##cccc",
"cccc#bbbbbb##a#a#bbbbbbbbbbbbbbbbbbbbbbbbbbbbbbbbb##cccc",
"cccc#bbbbbb##a#a#bbbbbbbbbbbbbbbbbbbbbbbbbbbbbbbbb##cccc",
"....##bbbbbb#a#a#bbbbbbbbbbbbbbbbbbbbbbbbbbbbbbbbb##....",
"....##bbbbbb#a#a#bbbbbbbbbbbbbbbbbbbbbbbbbbbbbbbbb##....",
"....##bbbbbb#a#a#bbbbbbbbbbbbbbbbbbbbbbbbbbbbbbbbb##....",
"....##bbbbbb#a#a#bbbbbbbbbbbbbbbbbbbbbbbbbbbbbbbbb##....",
"....##bbbbbb#a#a#bbbbbbbbbbbbbbbbbbbbbbbbbbbbbbbbb##....",
"....##bbbbbb#a#a#bbbbbbbbbbbbbbbbbbbbbbbbbbbbbbbbb##....",
"....##bbbbbb#a#a#bbbbbbbbbbbbbbbbbbbbbbbbbbbbbbbbb##....",
"....###a#a####a#a####a#a####a#a####a#a####a#a#######....",
"....###a#a####a#a####a#a####a#a####a#a####a#a#######....",
"....###a#a####a#a####a#a####a#a####a#a####a#a#######....",
"........................................................",
"........................................................",
"........................................................",
"........................................................"};
