/* XPM */
static char *schuppen_m[]={
"56 35 3 1",
". c None",
"# c #000000",
"a c #c00000",
"..............................##########################",
"..............................#aaaaaaaaaaaa#aaaaaaaaaa##",
"..............................#aaaaaaaaaaaa#aaaaaaaaaa##",
"..............................#aaaaaaaaaaaa#aaaaaaaaaa##",
"..............................#aaaaaaaaaaaa#aaaaaaaaaa##",
"..............................#aaaaaaaaaaaa#aaaaaaaaaa##",
"..............................#aaaaaaaaaaaa#aaaaaaaaaa##",
"..............................#aaaaaaaaaaaa#aaaaaaaaaa##",
"..............................#aaaaaaaaaaaa#aaaaaaaaaa##",
"..............................#aaaaaaaaaaaa#aaaaaaaaaa##",
"..............................#aaaaaaaaaaaa#aaaaaaaaaa##",
"..............................#aaaaaaaaaaaa#aaaaaaaaaa##",
"..............................#aaaaaaaaaaaa#aaaaaaaaaa##",
"..............................#aaaaaaaaaaaa#aaaaaaaaaa##",
"###############################aaaaaaaaaaaa#aaaaaaaaaa##",
"###############################aaaaaaaaaaaa#aaaaaaaaaa##",
"###############################aaaaaaaaaaaa#aaaaaaaaaa##",
"###############################aaaaaaaaaaaa#aaaaaaaaaa##",
"###############################aaaaaaaaaaaa#aaaaaaaaaa##",
"###############################aaaaaaaaaaaa#aaaaaaaaaa##",
"###############################aaaaaaaaaaaa#aaaaaaaaaa##",
"..............................#aaaaaaaaaaaa#aaaaaaaaaa##",
"..............................#aaaaaaaaaaaa#aaaaaaaaaa##",
"..............................#aaaaaaaaaaaa#aaaaaaaaaa##",
"..............................#aaaaaaaaaaaa#aaaaaaaaaa##",
"..............................#aaaaaaaaaaaa#aaaaaaaaaa##",
"..............................#aaaaaaaaaaaa#aaaaaaaaaa##",
"..............................#aaaaaaaaaaaa#aaaaaaaaaa##",
"..............................#aaaaaaaaaaaa#aaaaaaaaaa##",
"..............................#aaaaaaaaaaaa#aaaaaaaaaa##",
"..............................#aaaaaaaaaaaa#aaaaaaaaaa##",
"..............................#aaaaaaaaaaaa#aaaaaaaaaa##",
"..............................#aaaaaaaaaaaa#aaaaaaaaaa##",
"..............................#aaaaaaaaaaaa#aaaaaaaaaa##",
"..............................##########################"};
