/* XPM */
static char *schuppen_o[]={
"56 35 3 1",
". c None",
"# c #000000",
"a c #c00000",
".............................##.........................",
"...........................##aa#........................",
"..........................#aaaaa##......................",
"........................##aaaaaaa##.....................",
".......................#aaaaaaaaaaa#....................",
".....................##aaaaaaaaaaaa##...................",
"...................##a##aaaaaaaaaaaa#...................",
".................##aaaa##aaaaaaaaaaaa#..................",
".................#aaaaaa#aaaaaaaaaaaaa#.................",
"...............###aaaaaaa#aaaaaaaaaaaa#.................",
"..............#aaaaaaaaaa##aaaaaaaaaaaa#................",
"............##aaaaaaaaaaaa#aaaaaaaaaaaaa#...............",
"............#aaaaaaaaaaaaaa##aaaaaaaaaaaa#..............",
".............#aaaaaaaaaaaaaa##aaaaaaaaaaaa#.............",
"..............##aaaaaaaaaaaaa##aaaaaaaaaaa#.............",
"...............#aaaaaaaaaaaaaa#aaaaaaaaaaaa#............",
"................#aaaaaaaaaaaaaa#aaaaaaaaaaaa#...........",
".................#aaaaaaaaaaaaaa#aaaaaaaaaaaa#..........",
".................#aaaaaaaaaaaaaaa#aaaaaaaaaaaa#.........",
"..................#aaaaaaaaaaaaaaa#aaaaaaaaaaa##........",
"................####aaaaaaaaaaaaaa##aaaaaaaaaaa#........",
"...............######aaaaaaaaaaaaaa#aaaaaaaaaaaa#.......",
".............#########aaaaaaaaaaaaaa#aaaaaaaaaaaa#......",
"............###########aaaaaaaaaaaaa##aaaaaaaaaaa#......",
"..........#############aaaaaaaaaaaaaa#aaaaaaaaaaaa#.....",
"........##############.#aaaaaaaaaaaaaa#aaaaaaaaaaaa#....",
".......#############....#aaaaaaaaaaaaaa#aaaaaaaaaaaa#...",
".....#############.......#aaaaaaaaaaaaa#aaaaaaaaaaaaa#..",
"....#############.........#aaaaaaaaaaaaa#aaaaaaaaaaaaa..",
"..#############...........#aaaaaaaaaaaaaa#aaaaaaaaaaaa#.",
"##############.............#aaaaaaaaaaaaaa#aaaaaaaaaaa##",
"############................#aaaaaaaaaaaaa#aaaaaaaaaaa##",
"##########..................#aaaaaaaaaaaaaa#aaaaaaaaaa##",
"#########....................###########################",
"#######.......................##########################"};
