/* XPM */
static char *schuppen_u[]={
"56 35 3 1",
"# c None",
". c #000000",
"a c #c00000",
".......#######################..........................",
".........####################...........................",
"..........##################.aaaaaaaaaaaaaa.aaaaaaaaaa..",
"............################.aaaaaaaaaaaaa.aaaaaaaaaaa..",
"..............#############.aaaaaaaaaaaaaa.aaaaaaaaaaa..",
"##.............###########.aaaaaaaaaaaaaa.aaaaaaaaaaaa.#",
"####.............#########.aaaaaaaaaaaaa.aaaaaaaaaaaaa##",
"#####.............#######.aaaaaaaaaaaaa.aaaaaaaaaaaaa.##",
"#######.............####.aaaaaaaaaaaaaa.aaaaaaaaaaaa.###",
"########..............#.aaaaaaaaaaaaaa.aaaaaaaaaaaa.####",
"##########.............aaaaaaaaaaaaaa.aaaaaaaaaaaa.#####",
"############...........aaaaaaaaaaaaa..aaaaaaaaaaa.######",
"#############.........aaaaaaaaaaaaaa.aaaaaaaaaaaa.######",
"###############......aaaaaaaaaaaaaa.aaaaaaaaaaaa.#######",
"################....aaaaaaaaaaaaaa..aaaaaaaaaaa.########",
"##################.aaaaaaaaaaaaaaa.aaaaaaaaaaa..########",
"#################.aaaaaaaaaaaaaaa.aaaaaaaaaaaa.#########",
"#################.aaaaaaaaaaaaaa.aaaaaaaaaaaa.##########",
"################.aaaaaaaaaaaaaa.aaaaaaaaaaaa.###########",
"###############.aaaaaaaaaaaaaa.aaaaaaaaaaaa.############",
"##############..aaaaaaaaaaaaa..aaaaaaaaaaa.#############",
"#############.aaaaaaaaaaaaaa..aaaaaaaaaaaa.#############",
"############.aaaaaaaaaaaaaa..aaaaaaaaaaaa.##############",
"############..aaaaaaaaaaaa.aaaaaaaaaaaaa.###############",
"##############.aaaaaaaaaa..aaaaaaaaaaaa.################",
"###############...aaaaaaa.aaaaaaaaaaaa.#################",
"#################.aaaaaa.aaaaaaaaaaaaa.#################",
"#################..aaaa..aaaaaaaaaaaa.##################",
"###################..a..aaaaaaaaaaaa.###################",
"#####################..aaaaaaaaaaaa..###################",
"#######################.aaaaaaaaaaa.####################",
"########################..aaaaaaa..#####################",
"##########################.aaaaa..######################",
"###########################..aa.########################",
"#############################..#########################"};
