/* XPM */
static char* signal_hss[]={
"56 35 6 1",
"a c #a0a0a0",
"# c #000000",
". c None",
"b c #dcdcdc",
"c c #ff0000",
"| c #606060",
"........................................................",
"........................................................",
"........................................................",
"........................................................",
"........................................................",
"........................................................",
"........................................................",
"........................................................",
"........................................................",
"........................................................",
"........................................................",
"........................................................",
"........................................................",
"........................................................",
"#######bbbbb################################bbbbb#######",
"######bb|||bb##############################bbcccbb######",
"#####bb|||||bb############################bbcccccbb#####",
"#####bb|||||bb############################bbcccccbb#####",
"#####bb|||||bb############################bbcccccbb#####",
"######bb|||bb##############################bbcccbb######",
"#######bbbbb################################bbbbb#######",
"........................................................",
"........................................................",
"........................................................",
"..................|############################|........",
".............##..################################.......",
".............##..################################|......",
".............#####################################......",
".............##..################################|......",
".............##..################################.......",
"..................|############################|........",
"........................................................",
"........................................................",
"........................................................",
"........................................................"};
