/* XPM */
static const char*signal_ssh_xpm[]={
"56 35 4 1",
"# c #000000",
". c None",
"a c #dcdcdc",
"| c #ff0000",
"........................................................",
"........................................................",
"........................................................",
"........................................................",
"........................................................",
"........................................................",
"........................................................",
"........................................................",
"........................................................",
"........................................................",
"........................................................",
"........................................................",
"........................................................",
"........................................................",
"############################################aaaaa#######",
"###########################################aa|||aa######",
"##########################################aa|||||aa#####",
"##########################################aa|||||aa#####",
"##########################################aa|||||aa#####",
"###########################################aa|||aa######",
"############################################aaaaa#######",
"........................................................",
"........................................................",
"...........................############.................",
"..........................##############................",
"......................##..##############................",
"......................##..##############................",
"......................##################................",
"......................##..##############................",
"......................##..##############................",
"..........................##############................",
"...........................############.................",
"........................................................",
"........................................................",
"........................................................"};
