/* XPM */
static char *signal_vs[]={
"56 35 2 1",
". c None",
"# c #000000",
"........................................................",
"........................................................",
"........................................................",
"........................................................",
"........................................................",
"........................................................",
"........................................................",
"........................................................",
"........................................................",
"........................................................",
"........................................................",
"........................................................",
"........................................................",
"........................................................",
"########################################################",
"########################################################",
"########################################################",
"########################################################",
"########################################################",
"########################################################",
"########################################################",
"........................................................",
"........................................................",
"........................................................",
".............########...................................",
".........##..#########..................................",
".........##..##########.................................",
".........###############................................",
".........##...##########................................",
".........##....#########................................",
"................########................................",
"........................................................",
"........................................................",
"........................................................",
"........................................................"};
