/* XPM */
static const char*signal_sss_xpm[]={
"56 35 4 1",
"# c #000000",
". c None",
"a c #dcdcdc",
"| c #606060",
"........................................................",
"........................................................",
"........................................................",
"........................................................",
"........................................................",
"........................................................",
"........................................................",
"........................................................",
"........................................................",
"........................................................",
"........................................................",
"........................................................",
"........................................................",
"........................................................",
"#######aaaaa################################aaaaa#######",
"######aa|||aa##############################aa|||aa######",
"#####aa|||||aa############################aa|||||aa#####",
"#####aa|||||aa############################aa|||||aa#####",
"#####aa|||||aa############################aa|||||aa#####",
"######aa|||aa##############################aa|||aa######",
"#######aaaaa################################aaaaa#######",
"........................................................",
"........................................................",
"...........................############.................",
"..........................##############................",
"......................##..##############................",
"......................##..##############................",
"......................##################................",
"......................##..##############................",
"......................##..##############................",
"..........................##############................",
"...........................############.................",
"........................................................",
"........................................................",
"........................................................"};
