/* XPM */
static char*signal_hs[]={
"56 35 6 1",
"c c #a0a0a0",
"# c #000000",
". c None",
"a c #dcdcdc",
"b c #ff0000",
"| c #606060",
"........................................................",
"........................................................",
"........................................................",
"........................................................",
"........................................................",
"........................................................",
"........................................................",
"........................................................",
"........................................................",
"........................................................",
"........................................................",
"........................................................",
"........................................................",
"........................................................",
"############################################aaaaa#######",
"###########################################aabbbaa######",
"##########################################aabbbbbaa#####",
"##########################################aabbbbbaa#####",
"##########################################aabbbbbaa#####",
"###########################################aabbbaa######",
"############################################aaaaa#######",
"........................................................",
"........................................................",
"........................................................",
"............................|##################|........",
"......................##...######################.......",
"......................##..#######################|......",
"......................############################......",
"......................##..#######################|......",
"......................##...######################.......",
"............................|##################|........",
"........................................................",
"........................................................",
"........................................................",
"........................................................"};
