/* XPM */
static char*signal_ss_sh1[]={
"56 35 2 1",
". c None",
"a c #ffff00",
"........................................................",
"........................................................",
"........................................................",
"........................................................",
"........................................................",
"........................................................",
"........................................................",
"........................................................",
"........................................................",
"........................................................",
"........................................................",
"........................................................",
"........................................................",
"........................................................",
"........................................................",
"........................................................",
"........................................................",
"........................................................",
"........................................................",
"........................................................",
"........................................................",
"........................................................",
"........................................................",
"........................................................",
"........................................................",
"...........................aaa..........................",
"...........................aaaa.........................",
"............................aaaa........................",
".............................aaaa.......................",
"..............................aaa.......................",
"........................................................",
"........................................................",
"........................................................",
"........................................................",
"........................................................"};
