/* XPM */
static char*signal_nrb_xpm[]={
"56 35 4 1",
"# c #000000",
". c None",
"a c #dcdcdc",
"b c #ff0000",
"........................................................",
"........................................................",
"........................................................",
"........................................................",
"........................................................",
"........................................................",
"........................................................",
"........................................................",
"........................................................",
"........................................................",
"........................................................",
"........................................................",
"........................................................",
"........................................................",
"############################################aaaaa#######",
"###########################################aabbbaa######",
"##########################################aabbbbbaa#####",
"##########################################aabbbbbaa#####",
"##########################################aabbbbbaa#####",
"###########################################aabbbaa######",
"############################################aaaaa#######",
"........................................................",
"........................................................",
"........................................................",
"........................................................",
"........................................................",
"........................................................",
"........................................................",
"........................................................",
"........................................................",
"........................................................",
"........................................................",
"........................................................",
"........................................................",
"........................................................"};
