/* XPM */
static char*signal_ws_1[]={
"56 35 2 1",
". c None",
"# c #ffffff",
"........................................................",
"........................................................",
"........................................................",
"........................................................",
"........................................................",
"........................................................",
"........................................................",
"........................................................",
"........................................................",
"........................................................",
"........................................................",
"........................................................",
"........................................................",
"........................................................",
"........................................................",
"........................................................",
"........................................................",
"........................................................",
"........................................................",
"........................................................",
"........................................................",
"........................................................",
"........................................................",
".............................###........................",
".............................###........................",
".............................###........................",
"........................................................",
"........................................................",
"........................................................",
"........................................................",
".......................................###..............",
".......................................###..............",
".......................................###..............",
"........................................................",
"........................................................"};
