/* XPM */
static char*signal_ss_sh0[]={
"56 35 2 1",
". c None",
"a c #ff0000",
"........................................................",
"........................................................",
"........................................................",
"........................................................",
"........................................................",
"........................................................",
"........................................................",
"........................................................",
"........................................................",
"........................................................",
"........................................................",
"........................................................",
"........................................................",
"........................................................",
"........................................................",
"........................................................",
"........................................................",
"........................................................",
"........................................................",
"........................................................",
"........................................................",
"........................................................",
"........................................................",
"........................................................",
"........................................................",
"...................................aaa..................",
"...................................aaa..................",
"...................................aaa..................",
"...................................aaa..................",
"...................................aaa..................",
"........................................................",
"........................................................",
"........................................................",
"........................................................",
"........................................................"};
