/* XPM */
static char*signal_zp_1[]={
"56 35 2 1",
"a c #00ff00",
". c None",
"........................................................",
"........................................................",
"........................................................",
"........................................................",
"........................................................",
"........................................................",
"........................................................",
"........................................................",
"........................................................",
"........................................................",
"........................................................",
"........................................................",
"........................................................",
"........................................................",
"........................................................",
"........................................................",
"........................................................",
"........................................................",
"........................................................",
"........................................................",
"........................................................",
"........................................................",
"........................................................",
".................................a.a....................",
"...............................a.....a..................",
"........................................................",
"..............................a.......a.................",
"........................................................",
"..............................a.......a.................",
"........................................................",
"...............................a.....a..................",
".................................a.a....................",
"........................................................",
"........................................................",
"........................................................"};
