/* XPM */
static char*signal_ss[]={
"56 35 4 1",
"# c #000000",
". c None",
"a c #dcdcdc",
"| c #606060",
"........................................................",
"........................................................",
"........................................................",
"........................................................",
"........................................................",
"........................................................",
"........................................................",
"........................................................",
"........................................................",
"........................................................",
"........................................................",
"........................................................",
"........................................................",
"........................................................",
"############################################aaaaa#######",
"###########################################aa|||aa######",
"##########################################aa|||||aa#####",
"##########################################aa|||||aa#####",
"##########################################aa|||||aa#####",
"###########################################aa|||aa######",
"############################################aaaaa#######",
"........................................................",
"........................................................",
"...........................############.................",
"..........................##############................",
"......................##..##############................",
"......................##..##############................",
"......................##################................",
"......................##..##############................",
"......................##..##############................",
"..........................##############................",
"...........................############.................",
"........................................................",
"........................................................",
"........................................................"};
