/* XPM */
static char*signal_ws[]={
"56 35 5 1",
"# c #000000",
"b c #ff8000",
". c None",
"a c #dcdcdc",
"| c #606060",
"........................................................",
"........................................................",
"........................................................",
"........................................................",
"........................................................",
"........................................................",
"........................................................",
"........................................................",
"........................................................",
"........................................................",
"........................................................",
"........................................................",
"........................................................",
"........................................................",
"############################################aaaaa#######",
"###########################################aa|||aa######",
"##########################################aa|||||aa#####",
"##########################################aa|||||aa#####",
"##########################################aa|||||aa#####",
"###########################################aa|||aa######",
"############################################aaaaa#######",
"........................................................",
"....................................####................",
".............................###.###bbb#................",
".............................####bbbb###................",
"......................##.....###bb###...................",
"......................##........#bbb#...................",
"......................#############bb#..................",
"......................##........#bbb#...................",
"......................##.......#bb###...................",
"...............................##bbbb#####..............",
".................................###bbb###..............",
"....................................######..............",
"........................................................",
"........................................................"};
