/* XPM */
static char*signal_zp_0[]={
"56 35 2 1",
". c None",
"# c #585858",
"........................................................",
"........................................................",
"........................................................",
"........................................................",
"........................................................",
"........................................................",
"........................................................",
"........................................................",
"........................................................",
"........................................................",
"........................................................",
"........................................................",
"........................................................",
"........................................................",
"........................................................",
"........................................................",
"........................................................",
"........................................................",
"........................................................",
"........................................................",
"........................................................",
"........................................................",
"........................................................",
".................................#.#....................",
"...............................#.....#..................",
"........................................................",
"..............................#.......#.................",
"........................................................",
"..............................#.......#.................",
"........................................................",
"...............................#.....#..................",
".................................#.#....................",
"........................................................",
"........................................................",
"........................................................"};
