/* XPM */
static char*taste_wgt[]={
"56 35 5 1",
"b c #a0a0a0",
"# c #000000",
". c #0000c0",
"c c #ffffff",
"a c #ff0000",
"........................................................",
"........................................................",
"........................................................",
"........................................................",
"........................................................",
"...........................###..........................",
"..........................#aaa#.........................",
"..........................#aaa#.........................",
"..........................#aaa#.........................",
"...........................###..........................",
"........................................................",
"........................................................",
"........................................................",
"...........................###..........................",
"..........................#bbb#.........................",
".........................#bbbbb#........................",
"........................#bbbbbbb#.......................",
"........................#bbbbbbb#.......................",
"........................#bbbbbbb#.......................",
".........................#bbbbb#........................",
"..........................#bbb#.........................",
"...........................###..........................",
"........................................................",
"........................................................",
"..................#####################.................",
"..................#ccccccccccccccccccc#.................",
"..................#cc#ccc#cc###c#####c#.................",
"..................#cc#c#c#c#cccccc#ccc#.................",
"..................#cc#c#c#c#c##ccc#ccc#.................",
"..................#cc#c#c#c#cc#ccc#ccc#.................",
"..................#ccc###ccc##cccc#ccc#.................",
"..................#ccccccccccccccccccc#.................",
"..................#####################.................",
"........................................................",
"........................................................"};
