/* XPM */
static char*taste_ufgt_xpm[]={
"56 35 5 1",
"b c #a0a0a0",
"# c #000000",
". c #00a000",
"| c #ffffff",
"a c #ff0000",
"........................................................",
"........................................................",
"........................................................",
"........................................................",
"........................................................",
"........................................................",
"........................................................",
"........................................................",
"........................................................",
"........................................................",
"........................................................",
"........................................................",
"........................................................",
"..........###..............................###..........",
".........#bbb#............................#bbb#.........",
"........#bbbbb#..........................#bbbbb#........",
".......#bbbbbbb#........................#bbbbbbb#.......",
".......#bbbbbbb#........................#bbbbbbb#.......",
".......#bbbbbbb#........................#bbbbbbb#.......",
"........#bbbbb#..........................#bbbbb#........",
".........#bbb#............................#bbb#.........",
"..........###..............................###..........",
"........................................................",
"........................................................",
"..#######################.........####################..",
"..#|||||||||||||||||||||#.........#||||||||||||||||||#..",
"..#|#||#||##||###|#####|#.........#|##|##||###|#####|#..",
"..#|#||#|#|||#||||||#|||#.........#|#|#|#|#||||||#|||#..",
"..#|#||#|##||#|##|||#|||#.........#|#|#|#|#|##|||#|||#..",
"..#|#||#|#|||#||#|||#|||#.........#|#|#|#|#||#|||#|||#..",
"..#||##||#||||##||||#|||#.........#|#|#|#||##||||#|||#..",
"..#|||||||||||||||||||||#.........#||||||||||||||||||#..",
"..#######################.........####################..",
"........................................................",
"........................................................"};
