/* XPM */
static char*taste_fht[]={
"56 35 5 1",
"c c #808080",
"a c #a0a0a0",
"# c #000000",
". c #00a000",
"b c #ffffff",
"........................................................",
"........................................................",
"........................................................",
"........................................................",
"........................................................",
"........................................................",
"........................................................",
"........................................................",
"........................................................",
"........................................................",
"........................................................",
"........................................................",
"........................................................",
"..........###..............##########################...",
".........#aaa#.............#bbbbbbbbbbbbbbbbbbbbbbbb#...",
"........#aaaaa#............#bbbbcbbbbcbbbbcbbbbcbbbb#...",
".......#aaaaaaa#...........#bbbbcbbbbcbbbbcbbbbcbbbb#...",
".......#aaaaaaa#...........#bbbbcbbbbcbbbbcbbbbcbbbb#...",
".......#aaaaaaa#...........#bbbbcbbbbcbbbbcbbbbcbbbb#...",
"........#aaaaa#............#bbbbcbbbbcbbbbcbbbbcbbbb#...",
".........#aaa#.............#bbbbbbbbbbbbbbbbbbbbbbbb#...",
"..........###..............##########################...",
"........................................................",
"........................................................",
"..###################...................................",
"..#bbbbbbbbbbbbbbbbb#...................................",
"..#b####b#bb#b#####b#...................................",
"..#b#bbbb#bb#bbb#bbb#...................................",
"..#b###bb####bbb#bbb#...................................",
"..#b#bbbb#bb#bbb#bbb#...................................",
"..#b#bbbb#bb#bbb#bbb#...................................",
"..#bbbbbbbbbbbbbbbbb#...................................",
"..###################...................................",
"........................................................",
"........................................................"};
