/* XPM */
static char * trackvertical_xpm[] = {
"56 35 2 1",
" 	c None",
".	c #000000",
"                        .......                         ",
"                        .......                         ",
"                        .......                         ",
"                        .......                         ",
"                        .......                         ",
"                        .......                         ",
"                        .......                         ",
"                        .......                         ",
"                        .......                         ",
"                        .......                         ",
"                        .......                         ",
"                        .......                         ",
"                        .......                         ",
"                        .......                         ",
"                        .......                         ",
"                        .......                         ",
"                        .......                         ",
"                        .......                         ",
"                        .......                         ",
"                        .......                         ",
"                        .......                         ",
"                        .......                         ",
"                        .......                         ",
"                        .......                         ",
"                        .......                         ",
"                        .......                         ",
"                        .......                         ",
"                        .......                         ",
"                        .......                         ",
"                        .......                         ",
"                        .......                         ",
"                        .......                         ",
"                        .......                         ",
"                        .......                         ",
"                        .......                         "};
