/* XPM */
static char * turn_botvert_left_xpm[] = {
"56 35 2 1",
" 	c None",
".	c #000000",
"                        .......                         ",
"                        .......                         ",
"                        .......                         ",
"                        .......                         ",
"                        .......                         ",
"                        .......                         ",
"                        .......                         ",
"                        .......                         ",
"                        .......                         ",
"                        .......                         ",
"                        .......                         ",
"                        .......                         ",
"                        .......                         ",
"                        .......                         ",
"                        .......                         ",
"                        ........                        ",
"                        .........                       ",
"                        ...........                     ",
"                        ............                    ",
"                         .............                  ",
"                           .............                ",
"                            .............               ",
"                              .............             ",
"                               .............            ",
"                                 .............          ",
"                                  ..............        ",
"                                    .............       ",
"                                      .............     ",
"                                       .............    ",
"                                         .............  ",
"                                          ..............",
"                                            ............",
"                                              ..........",
"                                               .........",
"                                                 ......."};
