/* XPM */
static char * turn_botvert_right_xpm[] = {
"56 35 2 1",
" 	c None",
".	c #000000",
"                        .......                         ",
"                        .......                         ",
"                        .......                         ",
"                        .......                         ",
"                        .......                         ",
"                        .......                         ",
"                        .......                         ",
"                        .......                         ",
"                        .......                         ",
"                        .......                         ",
"                        .......                         ",
"                        .......                         ",
"                        .......                         ",
"                        .......                         ",
"                        .......                         ",
"                        .......                         ",
"                       ........                         ",
"                     ..........                         ",
"                    ...........                         ",
"                  .............                         ",
"                ..............                          ",
"               .............                            ",
"             ..............                             ",
"            .............                               ",
"          .............                                 ",
"        ..............                                  ",
"       .............                                    ",
"     .............                                      ",
"    .............                                       ",
"  .............                                         ",
"..............                                          ",
"............                                            ",
"..........                                              ",
".........                                               ",
".......                                                 "};
