/* XPM */
static char * turn_topvert_left_xpm[] = {
"56 35 2 1",
" 	c None",
".	c #000000",
".......                                                 ",
".........                                               ",
"..........                                              ",
"............                                            ",
"..............                                          ",
"  .............                                         ",
"    .............                                       ",
"     .............                                      ",
"       .............                                    ",
"        ..............                                  ",
"          .............                                 ",
"            .............                               ",
"             .............                              ",
"               .............                            ",
"                .............                           ",
"                  .............                         ",
"                    ............                        ",
"                     ...........                        ",
"                       .........                        ",
"                        ........                        ",
"                         .......                        ",
"                         .......                        ",
"                         .......                        ",
"                         .......                        ",
"                         .......                        ",
"                         .......                        ",
"                         .......                        ",
"                         .......                        ",
"                         .......                        ",
"                         .......                        ",
"                         .......                        ",
"                         .......                        ",
"                         .......                        ",
"                         .......                        ",
"                         .......                        "};
