/* XPM */
static char * uebergang_xpm[] = {
"56 35 6 1",
" 	c None",
".	c #808080",
"+	c #000000",
"@	c #DCDCDC",
"#	c #EBDE1C",
"$	c #F5E81D",
"                      ............                      ",
"                      ............                      ",
"                      ............                      ",
"                      ............                      ",
"                      ............                      ",
"       +++            ............            +++       ",
"      +   +           ............           +   +      ",
"      +   +           ............           +   +      ",
"      +   +           ............           +   +      ",
"       +++            ............            +++       ",
"                      ............                      ",
"                      ............                      ",
"                      ............                      ",
"                      ............                      ",
"+++++++++++++++++++++++++@@@@@++++++++++++++++++++++++++",
"++++++++++++++++++++++++@@###@@+++++++++++++++++++++++++",
"+++++++++++++++++++++++@@#$$$#@@++++++++++++++++++++++++",
"+++++++++++++++++++++++@@#$$$#@@++++++++++++++++++++++++",
"+++++++++++++++++++++++@@#$$$#@@++++++++++++++++++++++++",
"++++++++++++++++++++++++@@###@@+++++++++++++++++++++++++",
"+++++++++++++++++++++++++@@@@@++++++++++++++++++++++++++",
"                      ............                      ",
"                      ............                      ",
"                      ............                      ",
"                      ............                      ",
"                      ............                      ",
"                      ............                      ",
"                      ............                      ",
"                      ............                      ",
"                      ............                      ",
"                      ............                      ",
"                      ............                      ",
"                      ............                      ",
"                      ............                      ",
"                      ............                      "};
