/* XPM */
static char*weiche_y[]={
"56 35 3 1",
"# c #000000",
". c None",
"a c #dcdcdc",
".................................................#######",
"...............................................#########",
"..............................................##########",
"............................................############",
"...........................................#############",
".........................................#############..",
"........................................#############...",
"......................................#############.....",
".....................................#############......",
"...................................#############........",
".................................#############..........",
"................................#############...........",
"..............................#############.............",
".............................#############..............",
"##########################aaaaa#########................",
"#########################aa###aa######..................",
"########################aa#####aa####...................",
"########################aa#####aa###....................",
"########################aa#####aa####...................",
"#########################aa###aa######..................",
"##########################aaaaa#########................",
".............................#############..............",
"..............................#############.............",
"................................#############...........",
".................................#############..........",
"...................................#############........",
".....................................#############......",
"......................................#############.....",
"........................................#############...",
".........................................#############..",
"...........................................#############",
"............................................############",
"..............................................##########",
"...............................................#########",
".................................................#######"};
