/* XPM */
static char*weiche_diag_rechts[]={
"56 35 3 1",
"# c #000000",
". c None",
"a c #dcdcdc",
".................................................#######",
"...............................................#########",
"..............................................##########",
"............................................############",
"..........................................##############",
".........................................#############..",
".......................................#############....",
"......................................#############.....",
"....................................#############.......",
"..................................##############........",
".................................#############..........",
"...............................#############............",
".............................##############.............",
"............................aa###########...............",
"..........................aaaaa#########################",
".........................aa###aa########################",
".......................#aa#####aa#######################",
".....................###aa#####aa#######################",
"....................####aa#####aa#######################",
"..................#######aa###aa########################",
"................##########aaaaa#########################",
"...............#############............................",
".............##############.............................",
"............#############...............................",
"..........#############.................................",
"........##############..................................",
".......#############....................................",
".....#############......................................",
"....#############.......................................",
"..#############.........................................",
"##############..........................................",
"############............................................",
"##########..............................................",
"#########...............................................",
"#######................................................."};
