/* XPM */
static const char *spdrs60_32[] = {
/* width height num_colors chars_per_pixel */
"    32    32        5            1",
/* colors */
". c None",
"# c #000000",
"a c #ffe200",
"b c #00ff00",
"c c #ff0000",
/* pixels */
"................................",
"................................",
"................................",
"................................",
"......###......###......###.....",
".....#####....#####....#####....",
".....#####....#aaa#....#bbb#....",
".....#####....aaaaa....bbbbb....",
".....#####....#aaa#....#bbb#....",
".....#####....#####....#####....",
".....#####....#####....#####....",
".....#####....#####....#####....",
".....#ccc#....#####....#####....",
".....ccccc....#####....#####....",
".....#ccc#....#####....#####....",
".....#####....#####....#####....",
".....#####....#####....#####....",
".....#####....#####....#####....",
".....#####....#####....#####....",
".....#####....#####....#####....",
".....#####....#####....#####....",
".....#####....#####....#####....",
".....#####....#####....#####....",
".....#####....#####....#####....",
".....#####....#####....#####....",
".....#####....#####....#####....",
".......#........#........#......",
".......#........#........#......",
".....#####....#####.....###.....",
"................................",
"................................",
"................................"
};
