/* XPM */
static char * spdrs60_64_xpm[] = {
"64 64 30 1",
" 	c None",
".	c #000000",
"+	c #302A00",
"@	c #BFAA00",
"#	c #8F7F00",
"$	c #008F00",
"%	c #00BF00",
"&	c #003000",
"*	c #403800",
"=	c #9F8D00",
"-	c #FFE200",
";	c #DFC600",
">	c #807100",
",	c #201C00",
"'	c #002000",
")	c #008000",
"!	c #00DF00",
"~	c #00FF00",
"{	c #009F00",
"]	c #004000",
"^	c #300000",
"/	c #BF0000",
"(	c #8F0000",
"_	c #400000",
":	c #9F0000",
"<	c #FF0000",
"[	c #DF0000",
"}	c #800000",
"|	c #200000",
"a	c #606060",
"                                                                ",
"                                                                ",
"                                                                ",
"                                                                ",
"                                                                ",
"                                                                ",
"                                                                ",
"                                                                ",
"              a..a            a...a            a..a             ",
"            ........        ........         ........           ",
"           a........a      a.+@@@#..a       a..$%%%&.a          ",
"           ..........      .*=---;>,.       .')!~~~{].          ",
"           ..........      .>------*.       .]~~~~~~).          ",
"           ..........      .>------*.       .]~~~~~~).          ",
"           ..........      .>------*.       .]~~~~~~).          ",
"           ..........      .*=---;>,.       .')!~~~{].          ",
"           ..........      ..+@@@#...       ...$%%%&..          ",
"           ..........      ..........       ..........          ",
"           ..........      ..........       ..........          ",
"           ..........      ..........       ..........          ",
"           ..........      ..........       ..........          ",
"           ..........      ..........       ..........          ",
"           ..^///(...      ..........       ..........          ",
"           ._:<<<[}|.      ..........       ..........          ",
"           .}<<<<<<_.      ..........       ..........          ",
"           .}<<<<<<_.      ..........       ..........          ",
"           .}<<<<<<_.      ..........       ..........          ",
"           ._:<<<[}|.      ..........       ..........          ",
"           ..^///(...      ..........       ..........          ",
"           ..........      ..........       ..........          ",
"           ..........      ..........       ..........          ",
"           ..........      ..........       ..........          ",
"           ..........      ..........       ..........          ",
"           ..........      ..........       ..........          ",
"           ..........      ..........       ..........          ",
"           ..........      ..........       ..........          ",
"           ..........      ..........       ..........          ",
"           ..........      ..........       ..........          ",
"           ..........      ..........       ..........          ",
"           ..........      ..........       ..........          ",
"           ..........      ..........       ..........          ",
"           ..........      ..........       ..........          ",
"           ..........      ..........       ..........          ",
"           ..........      ..........       ..........          ",
"           ..........      ..........       ..........          ",
"           ..........      ..........       ..........          ",
"           ..........      ..........       ..........          ",
"           ..........      ..........       ..........          ",
"           ..........      ..........       ..........          ",
"           a........a      a........a       a........a          ",
"            ........        ........         ........           ",
"             a....a          a....a           a....a            ",
"               ..              ..               ..              ",
"               ..              ..               ..              ",
"               ..              ..               ..              ",
"            ........        ........         ........           ",
"            ........        ........         ........           ",
"            ........        ........         ........           ",
"                                                                ",
"                                                                ",
"                                                                ",
"                                                                ",
"                                                                ",
"                                                                "};
