/* XPM */
static const char *spdrs60_16_xpm[] = {
/* columns rows colors chars-per-pixel */
"16 16 14 1",
"  c black",
". c #0E0E0E",
"X c #370000",
"o c #006D00",
"O c #6D0000",
"+ c #717171",
"@ c #00ED00",
"# c green",
"$ c #ED0000",
"% c red",
"& c #8D8D8D",
"* c #9B9C9B",
"= c None",
"- c #C5C6C5",
/* pixels */
"================",
"===*..*==*..*===",
"===    ==    ===",
"===    == oo ===",
"===    ==o##o===",
"===    ==X@@X===",
"=== OO ==    ===",
"===O%%O==    ===",
"===X$$X==    ===",
"===    ==    ===",
"===    ==    ===",
"===    ==    ===",
"===*..*==*..*===",
"===-&&-==-&&-===",
"===+  +==+  +===",
"================"
};
