/* XPM */
static char * spdrs60_48_xpm[] = {
"48 48 5 1",
" 	c None",
".	c #000000",
"+	c #FFE200",
"@	c #00FF00",
"#	c #FF0000",
"                                                ",
"                                                ",
"                                                ",
"                                                ",
"                                                ",
"                                                ",
"          ...         ...          ...          ",
"         .....       .....        .....         ",
"        .......     ..+++..      ..@@@..        ",
"        .......     .+++++.      .@@@@@.        ",
"        .......     .+++++.      .@@@@@.        ",
"        .......     .+++++.      .@@@@@.        ",
"        .......     ..+++..      ..@@@..        ",
"        .......     .......      .......        ",
"        .......     .......      .......        ",
"        .......     .......      .......        ",
"        .......     .......      .......        ",
"        ..###..     .......      .......        ",
"        .#####.     .......      .......        ",
"        .#####.     .......      .......        ",
"        .#####.     .......      .......        ",
"        ..###..     .......      .......        ",
"        .......     .......      .......        ",
"        .......     .......      .......        ",
"        .......     .......      .......        ",
"        .......     .......      .......        ",
"        .......     .......      .......        ",
"        .......     .......      .......        ",
"        .......     .......      .......        ",
"        .......     .......      .......        ",
"        .......     .......      .......        ",
"        .......     .......      .......        ",
"        .......     .......      .......        ",
"        .......     .......      .......        ",
"        .......     .......      .......        ",
"        .......     .......      .......        ",
"        .......     .......      .......        ",
"        .......     .......      .......        ",
"         .....       .....        .....         ",
"           .           .            .           ",
"           .           .            .           ",
"         .....       .....        .....         ",
"         .....       .....        .....         ",
"                                                ",
"                                                ",
"                                                ",
"                                                ",
"                                                "};
