/* XPM */
static char * spdrs60_48r_xpm[] = {
"48 48 8 1",
" 	c None",
".	c #404040",
"+	c #808080",
"@	c #FFFFFF",
"#	c #000000",
"$	c #FFE200",
"%	c #00FF00",
"&	c #FF0000",
"...............................................+",
".                                              @",
".                                              @",
".                                              @",
".                                              @",
".                                              @",
".         ###         ###          ###         @",
".        #####       #####        #####        @",
".       #######     ##$$$##      ##%%%##       @",
".       #######     #$$$$$#      #%%%%%#       @",
".       #######     #$$$$$#      #%%%%%#       @",
".       #######     #$$$$$#      #%%%%%#       @",
".       #######     ##$$$##      ##%%%##       @",
".       #######     #######      #######       @",
".       #######     #######      #######       @",
".       #######     #######      #######       @",
".       #######     #######      #######       @",
".       ##&&&##     #######      #######       @",
".       #&&&&&#     #######      #######       @",
".       #&&&&&#     #######      #######       @",
".       #&&&&&#     #######      #######       @",
".       ##&&&##     #######      #######       @",
".       #######     #######      #######       @",
".       #######     #######      #######       @",
".       #######     #######      #######       @",
".       #######     #######      #######       @",
".       #######     #######      #######       @",
".       #######     #######      #######       @",
".       #######     #######      #######       @",
".       #######     #######      #######       @",
".       #######     #######      #######       @",
".       #######     #######      #######       @",
".       #######     #######      #######       @",
".       #######     #######      #######       @",
".       #######     #######      #######       @",
".       #######     #######      #######       @",
".       #######     #######      #######       @",
".       #######     #######      #######       @",
".        #####       #####        #####        @",
".          #           #            #          @",
".          #           #            #          @",
".        #####       #####        #####        @",
".        #####       #####        #####        @",
".                                              @",
".                                              @",
".                                              @",
".                                              @",
"+@@@@@@@@@@@@@@@@@@@@@@@@@@@@@@@@@@@@@@@@@@@@@@@"};
