/* XPM */
static const char *dkw_links_st3_xpm[]={
"108 27 10 1",
"f c None",
". c None",
"a c #000000",
"# c #303030",
"h c #585858",
"e c #800000",
"d c #a0a0a0",
"g c #dcdcdc",
"c c #ff0000",
"b c #ffffff",
"............................................................................................................",
"............................................................................................................",
".....................#aaaaa.....................#aaaaa.....................#aaaaa.....................#aaaaa",
"....................aabbaaa....................aaccaaa....................aaccaaa....................aabbaaa",
"...................#adbbaaa...................#aeccaaa...................#aeccaaa...................#adbbaaa",
"..................#abbbba#...................#acccca#...................#acccca#...................#abbbba#.",
"..............#..aabbbda#................#..aacccea#................#..aacccea#................#f.aabbbda#f.",
".............#a.#adbbbaa................#a.#aecccaa................#a.#aecccaa................#a.#adbbbaa...",
"...........aa#..abbbba#...............aa#..acccca#...............aa#..acccca#...............aa#..abbbba#....",
"..........a...aaabbda#...............a...aaaccea#...............a...aaaccea#....ff.........a...aaabbda#.....",
"..........#...aaabbaa.....#..........#...aaaccaa................#...aaaccaa.....ff.........#...aaabbaa......",
"aaaaaaaaaaaaggaaaaaaaaaaaa##aaaaaaaaaaaggaaaaaaaaaaaa##aaaaaaaaaaaggaaaaaaaaaaaa##aaaaaaaaaaaggaaaaaaaaaaaaa",
"aaacccccccagaagaacccccccaa##aacccccccagaagaabbbbbbbaa##aabbbbbbbagaagaabbbbbbbaa##aabbbbbbbagaagaacccccccaaa",
"aaacccccccagaagaacccccccaa##aacccccccagaagaabbbbbbbaa##aabbbbbbbagaagaabbbbbbbaa##aabbbbbbbagaagaacccccccaaa",
"aaacccccccagaagaacccccccaa##aacccccccagaagaabbbbbbbaa##aabbbbbbbagaagaabbbbbbbaa##aabbbbbbbagaagaacccccccaaa",
"aaaeeeeeeeaaggaaaeeeeeeeaa##aaeeeeeeeaaggaaahhhhhhhaa##aahhhhhhhaaggaaahhhhhhhaa##aahhhhhhhaaggaaaeeeeeeeaaa",
"aaaaaaaaaaaaggaaaaaaaaaaaa##aaaaaaaaaaaggaaaaaaaaaaaa##aaaaaaaaaaaggaaaaaaaaaaaa##aaaaaaaaaaaggaaaaaaaaaaaaa",
".....#abbaaaa..aa...............#abbaaaa..aa...............#accaaaa..aa...............#accaaaa..aa..........",
"....aabbbaa.aaaa...............aabbbaa.aaaa...............aacccaa.aaaa...............aacccaa.aaaa...........",
"...#adbbbaa.aaaa..............#adbbbaa.aaaa..............#aecccaa.aaaa..............#aecccaa.aaaa...........",
"..#abbbba#.a.................#abbbba#.a.................#acccca#.a.................#acccca#.a...............",
".aabbbda#...................aabbbda#...................aacccea#...................aacccea#..................",
"#adbbbaa...................#adbbbaa...................#aecccaa...................#aecccaa...................",
"aabbda#....................aabbda#....................aaccea#....................aaccea#....................",
"aaaa##.....................aaaa##.....................aaaa##.....................aaaa##.....................",
"aaaa#......................aaaa#......................aaaa#......................aaaa#......................",
"............................................................................................................"};
