/* XPM */
static const char *dkw_links_st2_xpm[]={
"108 27 8 1",
". c None",
"a c #000000",
"# c #303030",
"e c #800000",
"d c #808000",
"f c #dcdcdc",
"c c #ff0000",
"b c #ffff00",
"............................................................................................................",
"............................................................................................................",
".......................................#aaaaa.......................................#aaaaa..................",
"......................................aabbaaa......................................aaccaaa..................",
".....................................#adbbaaa.....................................#aeccaaa..................",
"....................................#abbbba#.....................................#acccca#...................",
"................................#..aabbbda#..................................#..aacccea#....................",
"...............................#a.#adbbbaa..................................#a.#aecccaa.....................",
".............................aaa..abbbba#.................................aaa..acccca#......................",
"............................a...aaabbda#.................................a...aaaccea#.......................",
"............................#...aaabbaa..................................#...aaaccaa........................",
"..................aaaaaaaaaaaaffaaaaaaaaaaaaa..................aaaaaaaaaaaaffaaaaaaaaaaaaa..................",
"..................aaacccccccafaafaacccccccaaa..................aaacccccccafaafaabbbbbbbaaa..................",
"..................aaacccccccafaafaacccccccaaa..................aaacccccccafaafaabbbbbbbaaa..................",
"..................aaacccccccafaafaacccccccaaa..................aaacccccccafaafaabbbbbbbaaa..................",
"..................aaaeeeeeeeaaffaaaeeeeeeeaaa..................aaaeeeeeeeaaffaaadddddddaaa..................",
"..................aaaaaaaaaaaaffaaaaaaaaaaaaa..................aaaaaaaaaaaaffaaaaaaaaaaaaa..................",
".......................#abbaaaa..aa.................................#abbaaaa..aa............................",
"......................aabbbaa.aaaa.................................aabbbaa.aaaa.............................",
".....................#adbbbaa.aaaa................................#adbbbaa.aaaa.............................",
"....................#abbbba#.a...................................#abbbba#.a.................................",
"...................aabbbda#.....................................aabbbda#....................................",
"..................#adbbbaa.....................................#adbbbaa.....................................",
"..................aabbda#......................................aabbda#......................................",
"..................aaaa##.......................................aaaa##.......................................",
"..................aaaa#........................................aaaa#........................................",
"............................................................................................................"};
