/* XPM */
static const char *dkw_rechts_st2_xpm[]={
"108 27 8 1",
". c None",
"# c #000000",
"a c #303030",
"e c #800000",
"c c #808000",
"f c #dcdcdc",
"d c #ff0000",
"b c #ffff00",
"............................................................................................................",
"..................####a........................................####a........................................",
"..................#####a.......................................####aa.......................................",
"..................##bbc#a......................................##dde#a......................................",
"..................a#cbbb##.....................................a#eddd##.....................................",
"...................a#bbbc##.....................................##ddde#a....................................",
"....................##bbbb#a.#...................................a#dddd#a.#.................................",
".....................##cbbb##.####................................a#eddd##.####.............................",
"......................##bbb##.####.................................##ddd##.####.............................",
".......................##bb####..##.................................a#dd####..##............................",
"..................############ff#############..................############ff#############..................",
"..................###eeeeeee##ff###eeeeeee###..................###ccccccc##ff###eeeeeee###..................",
"..................###ddddddd#f##f##ddddddd###..................###bbbbbbb#f##f##ddddddd###..................",
"..................###ddddddd#f##f##ddddddd###..................###bbbbbbb#f##f##ddddddd###..................",
"..................###ddddddd#f##f##ddddddd###..................###bbbbbbb#f##f##ddddddd###..................",
"..................############ff#############..................############ff#############..................",
"............................a...###bb##..................................a...###bb##........................",
"............................#a..###bbc#a.................................#a..###bbc#a.......................",
".............................##a.a#bbbb#a.................................##a.a#bbbb#a......................",
"...............................a#.a#cbbb##..................................a#.a#cbbb##.....................",
"................................a..##bbbc#a..................................a..##bbbc#a....................",
"....................................a#bbbb#a.....................................a#bbbb#a...................",
".....................................a#cbb###.....................................a#cbb###..................",
"......................................##bb###......................................##bb###..................",
".......................................a#####.......................................a#####..................",
"............................................................................................................",
"............................................................................................................"};
