/* XPM */
static const char *dkw_rechts_st3_xpm[]={
"108 27 9 1",
"f c None",
". c None",
"# c #000000",
"a c #303030",
"e c #800000",
"c c #a0a0a0",
"g c #dcdcdc",
"d c #ff0000",
"b c #ffffff",
"............................................................................................................",
"####a......................####a......................####a......................####a......................",
"####aa.....................####aa.....................####aa.....................####aa.....................",
"##bbc#a....................##dde#a....................##dde#a....................##bbc#a....................",
"a#cbbb##...................a#eddd##...................a#eddd##...................a#cbbb##...................",
".##bbbc#a...................##ddde#a...................##ddde#a...................##bbbc#a..................",
"..a#bbbb#a.#.................a#dddd#a.#.................a#dddd#a.#.................a#bbbb#a.#...............",
"...a#cbbb##.####..............a#eddd##.####..............a#eddd##.####..............a#cbbb##.####...........",
"....##bbb##.####...............##ddd##.####...............##ddd##.####...............##bbb##.####...........",
".....a#bb####..##..........f....a#dd####..##.........f.....a#dd####..##...............a#bb####..##..........",
"############gg############aa###########gg############aa###########gg############aa###########gg#############",
"###eeeeeee##gg###eeeeeee##aa##aaaaaaa##gg###eeeeeee##aa##aaaaaaa##gg###aaaaaaa##aa##eeeeeee##gg###aaaaaaa###",
"###ddddddd#g##g##ddddddd##aa##bbbbbbb#g##g##ddddddd##aa##bbbbbbb#g##g##bbbbbbb##aa##ddddddd#g##g##bbbbbbb###",
"###ddddddd#g##g##ddddddd##aa##bbbbbbb#g##g##ddddddd##aa##bbbbbbb#g##g##bbbbbbb##aa##ddddddd#g##g##bbbbbbb###",
"###ddddddd#g##g##ddddddd##aa##bbbbbbb#g##g##ddddddd##aa##bbbbbbb#g##g##bbbbbbb##aa##ddddddd#g##g##bbbbbbb###",
"############gg############aa###########gg############aa###########gg############aa###########gg#############",
"..........a...###bb##................a...###bb##................a...###dd##................a...###dd##......",
"..........#a..###bbc#a...............#a..###bbc#a...............#a..###dde#a...............#a..###dde#a.....",
"...........###.a#bbbb#a...............###.a#bbbb#a...............###..#dddd#a...............###..#dddd#a....",
"..............#.a#cbbb##.................#.a#cbbb##.................#.a#eddd##.................#.a#eddd##...",
"..............a..##bbbc#a................a..##bbbc#a................a..##ddde#a................a..##ddde#a..",
"..................a#bbbb#a...................a#bbbb#a...................a#dddd#a...................a#dddd#a.",
"...................a#cbb###...................a#cbb###...................a#edd###...................a#edd###",
"....................##bb###....................##bb###....................##dd###....................##dd###",
".....................a#####.....................a#####.....................a#####.....................a#####",
"............................................................................................................",
"............................................................................................................"};
