/* XPM */
static const char *fb_prevpage_xpm[] = {
"    32    32        2            1",
". c None",
"# c #ff0000",
"................................",
"................................",
"................................",
"................................",
".....................#..........",
"....................##..........",
"...................###..........",
"..................####..........",
".................#####..........",
"................######..........",
"...............#######..........",
"..............########..........",
".............#########..........",
"............##########..........",
"...........###########..........",
"..........############..........",
".........#############..........",
"..........############..........",
"...........###########..........",
"............##########..........",
".............#########..........",
"..............########..........",
"...............#######..........",
"................######..........",
".................#####..........",
"..................####..........",
"...................###..........",
"....................##..........",
".....................#..........",
"................................",
"................................",
"................................"};
