/* XPM */
static const char* fileimport_xpm[] = {
"22 22 6 1",
" 	c None",
".	c #FF0000",
"+	c #000000",
"@	c #FFFF00",
"#	c #FFFFFF",
"$	c #848200",
"                      ",
"                      ",
"                      ",
"            ....    . ",
"           .    .. .. ",
"                  ... ",
"                 .... ",
" ++++           ..... ",
"+@#@#++++++++++       ",
"+#@#@#@#@#@#@#+       ",
"+@#@#@#@#@#@#@+       ",
"+#@#@#@#@#@#@#+       ",
"+@#@#@#+++++++++++++++",
"+#@#@#++$$$$$$$$$$$$++",
"+@#@#++$$$$$$$$$$$$++ ",
"+#@#++$$$$$$$$$$$$++  ",
"+@#++$$$$$$$$$$$$++   ",
"+#++$$$$$$$$$$$$++    ",
"+++$$$$$$$$$$$$++     ",
"++$$$$$$$$$$$$++      ",
"+++++++++++++++       ",
"                      "};
