/* XPM */
static const char * route_view_xpm[] = {
"22 22 4 1",
" 	c None",
".	c #0080FF",
"+	c #0000FF",
"@	c #FFFFFF",
"                      ",
"                      ",
"                      ",
"                      ",
"                      ",
"...          ...      ",
". ..         . ..     ",
"   .            .     ",
"   ..            ..   ",
"    ..            ..  ",
"     ..++++++++ +++.  ",
"     ++@@@++  ++@@@+  ",
"     +@@@@@+  +@@@@@+ ",
"     +@@@@@+  +@@@@@+ ",
"     +@@@@@+  +@@@@@+ ",
"      +@@@++   +@@@++ ",
"      ++++     ++++   ",
"                      ",
"                      ",
"                      ",
"                      ",
"                      "};
