/* XPM */
static const char *route_locked_xpm[]={
"20 20 3 1",
"# c #000000",
". c #dcdcdc",
"a c #ffff00",
"....................",
"....................",
"....................",
"....................",
"....................",
".....##########.....",
".....#aaaaaaaa#.....",
".....#aaaaaaaa#.....",
".....#aaaaaaaa#.....",
".....#aaaaaaaa#.....",
".....#aaaaaaaa#.....",
".....#aaaaaaaa#.....",
".....#aaaaaaaa#.....",
".....#aaaaaaaa#.....",
".....##########.....",
"....................",
"....................",
"....................",
"....................",
"...................."};
