/* XPM */
static const char * route_edit_xpm[] = {
"22 22 147 2",
"  	c None",
". 	c #000000",
"+ 	c #434343",
"@ 	c #484848",
"# 	c #3C3C3C",
"$ 	c #211E19",
"% 	c #363129",
"& 	c #292219",
"* 	c #17130E",
"= 	c #191919",
"- 	c #B9B9B9",
"; 	c #F1F1F1",
"> 	c #A7A7A7",
", 	c #171717",
"' 	c #120F0C",
") 	c #473E32",
"! 	c #B8A183",
"~ 	c #8B7051",
"{ 	c #282017",
"] 	c #4A4A4A",
"^ 	c #E5E5E5",
"/ 	c #E4E4E4",
"( 	c #F5F5F5",
"_ 	c #FAFAFA",
": 	c #ECECEC",
"< 	c #BBBBBB",
"[ 	c #5D503F",
"} 	c #BD9A6F",
"| 	c #D29957",
"1 	c #A16939",
"2 	c #2F1E10",
"3 	c #898989",
"4 	c #B2B2B2",
"5 	c #C8C8C8",
"6 	c #FCFCFC",
"7 	c #F6F6F6",
"8 	c #E9E9E9",
"9 	c #EFEFEF",
"0 	c #F4F4F4",
"a 	c #CDCDCD",
"b 	c #605240",
"c 	c #AF8B5F",
"d 	c #CD9457",
"e 	c #A96E37",
"f 	c #3D2614",
"g 	c #1C1109",
"h 	c #3B3B3B",
"i 	c #7F7F7F",
"j 	c #D8D8D8",
"k 	c #F2F2F2",
"l 	c #E8E8E8",
"m 	c #E6E6E6",
"n 	c #A8A6A5",
"o 	c #6A5E4F",
"p 	c #C99256",
"q 	c #A16A36",
"r 	c #4F3017",
"s 	c #0F0904",
"t 	c #4C4C4C",
"u 	c #FFFFFF",
"v 	c #FEFEFE",
"w 	c #EEEEEE",
"x 	c #E0E0E0",
"y 	c #E3E3E3",
"z 	c #E1E1E1",
"A 	c #BAB7B3",
"B 	c #978A7A",
"C 	c #C6A378",
"D 	c #CC9457",
"E 	c #A16A35",
"F 	c #5A371A",
"G 	c #E7E7E7",
"H 	c #FBFBFB",
"I 	c #DDDDDD",
"J 	c #F7F7F7",
"K 	c #A5A4A1",
"L 	c #847767",
"M 	c #C7A272",
"N 	c #D69952",
"O 	c #B1743E",
"P 	c #50321B",
"Q 	c #303030",
"R 	c #DBDBDB",
"S 	c #959595",
"T 	c #988975",
"U 	c #C29B68",
"V 	c #D5974F",
"W 	c #B37036",
"X 	c #856D58",
"Y 	c #3A3634",
"Z 	c #EDEDED",
"` 	c #D9D9D9",
" .	c #B4B4B4",
"..	c #A89C8C",
"+.	c #BD996D",
"@.	c #CD9351",
"#.	c #AC6E34",
"$.	c #402713",
"%.	c #9E9893",
"&.	c #777777",
"*.	c #D5D5D5",
"=.	c #DEDEDE",
"-.	c #969696",
";.	c #AEA08F",
">.	c #C0976C",
",.	c #B47F4C",
"'.	c #8F7258",
").	c #7D7A77",
"!.	c #D0D0D0",
"~.	c #C4C4C4",
"{.	c #6A6A6A",
"].	c #141414",
"^.	c #AFAFAF",
"/.	c #C9C9C9",
"(.	c #7D756D",
"_.	c #8D735C",
":.	c #987C65",
"<.	c #EBEBEB",
"[.	c #161616",
"}.	c #A2A2A2",
"|.	c #D3D3D3",
"1.	c #787878",
"2.	c #575757",
"3.	c #2A2A2A",
"4.	c #494949",
"5.	c #9F9F9F",
"6.	c #DFDFDF",
"7.	c #B5B5B5",
"8.	c #181818",
"9.	c #D2D2D2",
"0.	c #7A7A7A",
"a.	c #757575",
"b.	c #BEBEBE",
"c.	c #E2E2E2",
"d.	c #A3A3A3",
"e.	c #7C7C7C",
"f.	c #D1D1D1",
"g.	c #EAEAEA",
"h.	c #737373",
"i.	c #525252",
"j.	c #A0A0A0",
"k.	c #C2C2C2",
"l.	c #6F6F6F",
"m.	c #333333",
"n.	c #B3B3B3",
"o.	c #9C9C9C",
"p.	c #404040",
"                                            ",
"                    . . .           . .     ",
"                    + @ #         $ % & *   ",
"                = = - ; > ,     ' ) ! ~ {   ",
"          . . ] ^ / ( _ : < , . [ } | 1 2   ",
"      . . 3 4 5 6 7 8 9 0 a , b c d e f g   ",
"  . h i i j _ k l m 8 k / n o c p q r s     ",
"  . t u v 7 w m x y k z A B C D E F .       ",
"  . ] G H m I G _ J 8 K L M N O P .         ",
"      Q m 0 0 7 9 R S T U V W X Y .         ",
"      = y _ Z z `  ...+.@.#.$.%. .&..       ",
"      , &.*.k 8 =.-.;.>.,.'.).!.w ~.{.].    ",
"        . ^._ w /.&.(._.:.> : 0 k <.5 [.    ",
"        . }.Z |.1.2.3.4.5.( 0 k Z 6.7.[.    ",
"          8.3 9.0.a.b.c.<.0 9 ^ z d.[.      ",
"          . e.: f.f.g.k <.^ / h.+ h         ",
"            i.j.7 k : l k.l.l.m.            ",
"            . 4.; 8 n.o.1.. .               ",
"              + !.5 p.. .                   ",
"                , [.                        ",
"                                            ",
"                                            "};
