/* XPM */
static const char * route_record_xpm[] = {
"22 22 4 1",
" 	c None",
".	c #FF6868",
"+	c #FF0000",
"@	c #AA0000",
"                      ",
"                      ",
"                      ",
"                      ",
"                      ",
"         ....         ",
"       ..+++++.       ",
"      .++++++++@      ",
"      .++++++++@      ",
"     .++++++++++@     ",
"     .++++++++++@     ",
"     .++++++++++@     ",
"     .++++++++++@     ",
"      +++++++++@      ",
"      .++++++++@      ",
"       @@++++@@       ",
"         @@@@         ",
"                      ",
"                      ",
"                      ",
"                      ",
"                      "};
