/* XPM */
static const char * route_wfunlock_xpm[] = {
"20 20 5 1",
" 	c None",
".	c #DCDCDC",
"+	c #000000",
"@	c #FFFF00",
"#	c #808080",
"....................",
"....................",
"....................",
"....................",
"....................",
".....++++++++++.....",
".....+@@@@####+.....",
".....+@@@@####+.....",
".....+@@@@####+.....",
".....+@@@@####+.....",
".....+@@@@####+.....",
".....+@@@@####+.....",
".....+@@@@####+.....",
".....+@@@@####+.....",
".....++++++++++.....",
"....................",
"....................",
"....................",
"....................",
"...................."};
