/* XPM */
static const char * spdritem_ws_xpm[] = {
"56 35 7 1",
" 	c None",
".	c #000000",
"+	c #DEDFDE",
"@	c #636163",
"#	c #FF8200",
"$	c #848284",
"%	c #C6C3C6",
"                                                        ",
"                                                        ",
"                                                        ",
"                                                        ",
"                                                        ",
"                                                        ",
"                                                        ",
"                                                        ",
"                                                        ",
"                                                        ",
"                                                        ",
"                                                        ",
"                                                        ",
"                                                        ",
"............................................+++++.......",
"...........................................++@@@++......",
"..........................................++@@@@@++.....",
"..........................................++@@@@@++.....",
"..........................................++@@@@@++.....",
"...........................................++@@@++......",
"............................................+++++.......",
"                                                        ",
"                                             ....       ",
"                                      ... ...###.       ",
"                                      .$..####...       ",
"                        ...    ..     ...##...          ",
"                       .$$$.   ..        .###.          ",
"                       .$$$.   .............##.         ",
"                       .$$$.   ..        .###.       %  ",
"                        ...    ..       .##...          ",
"                                        ..####.....     ",
"                                          ...###.$.     ",
"                                             ......     ",
"                                                        ",
"                                                        "};
