/* XPM */
static const char * spdritem_feg_xpm[] = {
"22 22 2 1",
" 	c None",
".	c #00A000",
"                      ",
"                      ",
"                      ",
"                      ",
"                      ",
" .................... ",
" .................... ",
" .................... ",
" .................... ",
" .................... ",
" .................... ",
" .................... ",
" .................... ",
" .................... ",
" .................... ",
" .................... ",
" .................... ",
" .................... ",
"                      ",
"                      ",
"                      ",
"                      "};
