/* XPM */
static const char * spdritem_mdc_xpm[] = {
"56 35 4 1",
" 	c None",
".	c #000000",
"+	c #FF0000",
"@	c #0000FF",
"                                                        ",
"                                                        ",
"                                                        ",
"                                                        ",
"                                                        ",
"                                                        ",
"                                                        ",
"                                                        ",
"                                                        ",
"                                                        ",
"                                                        ",
"                                                        ",
"                                                        ",
"                                                        ",
"                                                        ",
"                            .                           ",
"                        .........                       ",
"                       ..... .....                      ",
"      +               ...       ...                     ",
"      +              ...         ...                    ",
"    +++++           ...           ...           @@@@@   ",
"      +             ..    .   .    ..                   ",
"      +             ..    .. ..    ..                   ",
"                  ++..    . . .    ..@@                 ",
"    ++++++++++++++++.     .   .    ..@@@@@@@@@@@@@@@@   ",
"                  ++..             ..@@                 ",
"                    ..    .....    ..                   ",
"                    ..             ..                   ",
"                    ...   . . .   ...                   ",
"                     ...         ...                    ",
"                      ...       ...                     ",
"                       ...........                      ",
"                        .........                       ",
"                                                        ",
"                                                        "};
