/* XPM */
static const char * spdritem_taf_xpm[] = {
"56 35 17 1",
" 	c None",
".	c #00A200",
"+	c #000000",
"@	c #FFFFFF",
"#	c #848284",
"$	c #E7E3E7",
"%	c #393C39",
"&	c #393839",
"*	c #525552",
"=	c #9C9E9C",
"-	c #525152",
";	c #101010",
">	c #EFEBEF",
",	c #EFEFEF",
"'	c #A5A6A5",
")	c #424142",
"!	c #4A494A",
"........................................................",
"........................................................",
"........................................................",
"........................................................",
"........................................................",
"........................................................",
"........................................................",
"........................................................",
"........................................................",
"........................................................",
"........................................................",
"........................................................",
"............................++++++++++++++++++++++++....",
"..........+++...............+@@@@@@@@@@@@@@@@@@@@@@+....",
"........++###++.............+@$%&%$$%&%$$%&%$$%&%$@+....",
"........+#####+.............+@*=@=-*=@=-*=@=-*=@=-@+....",
".......+#######+............+@;>@>;;>@>;;>@>;;>@>;@+....",
".......+#######+............+@+@@@++@@@++@@@++@@@+@+....",
".......+#######+............+@;,@,;;,@,;;,@,;;,@,;@+....",
"........+#####+.............+@*'@'**'@'**'@'**'@'*@+....",
"........++###++.............+@$)!)$$)!)$$)!)$$)!)$@+....",
"..........+++...............+@@@@@@@@@@@@@@@@@@@@@@+....",
"............................++++++++++++++++++++++++....",
"........................................................",
"..+++++++++++++++++++...................................",
"..+@@@@@@@@@@@@@@@@@+...................................",
"..+@++++@+@@+@+++++@+...................................",
"..+@+@@@@+@@+@@@+@@@+...................................",
"..+@+++@@++++@@@+@@@+...................................",
"..+@+@@@@+@@+@@@+@@@+...................................",
"..+@+@@@@+@@+@@@+@@@+...................................",
"..+@@@@@@@@@@@@@@@@@+...................................",
"..+++++++++++++++++++...................................",
"........................................................",
"........................................................"};
