/* XPM */
static const char * spdritem_srb_xpm[] = {
"56 35 4 1",
" 	c None",
".	c #000000",
"+	c #DEDFDE",
"@	c #636163",
"                                                        ",
"                                                        ",
"                                                        ",
"                                                        ",
"                                                        ",
"                                                        ",
"                                                        ",
"                                                        ",
"                                                        ",
"                                                        ",
"                                                        ",
"                                                        ",
"                                                        ",
"                                                        ",
"............................................+++++.......",
"...........................................++@@@++......",
"..........................................++@@@@@++.....",
"..........................................++@@@@@++.....",
"..........................................++@@@@@++.....",
"...........................................++@@@++......",
"............................................+++++.......",
"                                                        ",
"                                                        ",
"                                                        ",
"                                                        ",
"                                                        ",
"                                                        ",
"                                                        ",
"                                                        ",
"                                                        ",
"                                                        ",
"                                                        ",
"                                                        ",
"                                                        ",
"                                                        "};
