/* XPM */
static const char * spdritem_zpr_xpm[] = {
"32 32 5 1",
" 	c None",
".	c #000000",
"+	c #848284",
"@	c #DEDFDE",
"#	c #636163",
" ...........                    ",
" ....+.+....                    ",
" ..+.....+..                    ",
" ...........                    ",
" .+.......+.                    ",
" ...........                    ",
" .+.......+.                    ",
" ...........                    ",
" ..+.....+..                    ",
" ....+.+....                    ",
" ...........                    ",
"      .                         ",
"      .     ...........@@@@@....",
"      .     ..........@@###@@...",
"      .     .........@@#####@@..",
"      .     .........@@#####@@..",
"    .....   .........@@#####@@..",
"    .....   ..........@@###@@...",
"            ...........@@@@@....",
"                                ",
"                                ",
"                                ",
"                                ",
"                                ",
"                                ",
"                                ",
"                                ",
"                                ",
"                                ",
"                                ",
"                                ",
"                                "};
