/* XPM */
static const char * spdritem_drt_xpm[] = {
"32 32 3 1",
" 	c None",
".	c #838183",
"+	c #000000",
"                                ",
"                                ",
"                                ",
"                                ",
"                                ",
"                                ",
"                                ",
"                                ",
"                                ",
"                                ",
"                  ............  ",
"                 .............. ",
"                ...             ",
"               ...              ",
"              ...               ",
"             ...                ",
"            ...     +           ",
"           ...     +++          ",
"          ...     +++++         ",
"          ..     +++++++        ",
"          ..    +++++++++       ",
"          ..     +++++++++      ",
"          ..      +++++++++     ",
"          ..       +++++++++    ",
"          ..        +++++++++   ",
"          ..         +++++++++  ",
"          ..          +++++++++ ",
"          ..           +++++++++",
"          ..            ++++++++",
"          ..             +++++++",
"          .               ++++++",
"                           +++++"};
