/* XPM */
static const char * spdritem_taw_xpm[] = {
"56 35 6 1",
" 	c None",
".	c #0000C6",
"+	c #000000",
"@	c #FF0000",
"#	c #848284",
"$	c #FFFFFF",
"........................................................",
"........................................................",
"........................................................",
"........................................................",
"........................................................",
"...........................+++..........................",
"..........................+@@@+.........................",
"..........................+@@@+.........................",
"..........................+@@@+.........................",
"...........................+++..........................",
"........................................................",
"........................................................",
"........................................................",
"...........................+++..........................",
".........................++###++........................",
".........................+#####+........................",
"........................+#######+.......................",
"........................+#######+.......................",
"........................+#######+.......................",
".........................+#####+........................",
".........................++###++........................",
"...........................+++..........................",
"........................................................",
"........................................................",
"..................+++++++++++++++++++++.................",
"..................+$$$$$$$$$$$$$$$$$$$+.................",
"..................+$$+$$$+$$+++$+++++$+.................",
"..................+$$+$+$+$+$$$$$$+$$$+.................",
"..................+$$+$+$+$+$++$$$+$$$+.................",
"..................+$$+$+$+$+$$+$$$+$$$+.................",
"..................+$$$+++$$$++$$$$+$$$+.................",
"..................+$$$$$$$$$$$$$$$$$$$+.................",
"..................+++++++++++++++++++++.................",
"........................................................",
"........................................................"};
