/* XPM */
static const char * spdritem_dlt_xpm[] = {
"32 32 3 1",
" 	c None",
".	c #838183",
"+	c #000000",
"                                ",
"                                ",
"                                ",
"                                ",
"                                ",
"                                ",
"                                ",
"                                ",
"                                ",
"                                ",
"  ............                  ",
" ..............                 ",
"             ...                ",
"              ...               ",
"               ...              ",
"                ...             ",
"           +     ...            ",
"          +++     ...           ",
"         +++++     ...          ",
"        +++++++     ..          ",
"       +++++++++    ..          ",
"      +++++++++     ..          ",
"     +++++++++      ..          ",
"    +++++++++       ..          ",
"   +++++++++        ..          ",
"  +++++++++         ..          ",
" +++++++++          ..          ",
"+++++++++           ..          ",
"++++++++            ..          ",
"+++++++             ..          ",
"++++++               .          ",
"+++++                           "};
