/* XPM */
static const char * spdritem_ri2_xpm[] = {
"32 32 2 1",
" 	c None",
".	c #000000",
"                                ",
" .                             .",
" ..                           . ",
"  ..                        ... ",
"  ....                     .... ",
"   ....                   ....  ",
"   .....                .....   ",
"    .....              ......   ",
"    .......           ......    ",
"     .......         .......    ",
"     ........      ........     ",
"      ........    .........     ",
"      .......... .........      ",
"................................",
"................................",
"................................",
"................................",
"................................",
"................................",
"      ....................      ",
"      .........   .........     ",
"     .........     ........     ",
"     .......        ........    ",
"    .......          .......    ",
"    ......             ......   ",
"   ......               .....   ",
"   .....                 ....   ",
"   ...                    ....  ",
"  ...                       ... ",
"  ..                         .. ",
" .                            . ",
"                               ."};
