/* XPM */
static const char * spdritem_adr_xpm[] = {
"56 35 30 1",
" 	c None",
".	c #848284",
"+	c #DEDFDE",
"@	c #6B6D6B",
"#	c #080C08",
"$	c #080808",
"%	c #5A5D5A",
"&	c #DEDBDE",
"*	c #7B827B",
"=	c #000000",
"-	c #000400",
";	c #636563",
">	c #181C18",
",	c #B5BAB5",
"'	c #C6C7C6",
")	c #CECFCE",
"!	c #212421",
"~	c #393839",
"{	c #B5B6B5",
"]	c #4A4D4A",
"^	c #9C9E9C",
"/	c #ADAEAD",
"(	c #424142",
"_	c #525552",
":	c #949694",
"<	c #212021",
"[	c #313431",
"}	c #ADAAAD",
"|	c #7B7D7B",
"1	c #6B696B",
"                                                        ",
"                                                        ",
"                                                        ",
"                                                        ",
"                                                        ",
"                                                        ",
"   .................................................    ",
"   .................................................    ",
"   ..+++++++++++++++++++++++++++++++++++++++++++++..    ",
"   ..+++++++++++++++++++++++++++++++++++++++++++++..    ",
"   ..+++++++++++++++++++++++++++++++++++++++++++++..    ",
"   ..++++@#$%&+++@#$%&+++@#$%&+++@#$%&+++@#$%&++++..    ",
"   ..+++*=--=;++*=--=;++*=--=;++*=--=;++*=--=;++++..    ",
"   ..+++>=,'$$&+>=,'$$&+>=,'$$&+>=,'$$&+>=,'$$&+++..    ",
"===..++)=!++~={)=!++~={)=!++~={)=!++~={)=!++~={+++..====",
"===..++{=~++]=^{=~++]=^{=~++]=^{=~++]=^{=~++]=^+++..====",
"===..++/=(++_=:/=(++_=:/=(++_=:/=(++_=:/=(++_=:+++..====",
"===..++/=(++_=:/=(++_=:/=(++_=:/=(++_=:/=(++_=:+++..====",
"===..++{=~++]=^{=~++]=^{=~++]=^{=~++]=^{=~++]=^+++..====",
"===..++)=<++[={)=<++[={)=<++[={)=<++[={)=<++[={+++..====",
"===..+++>=},-#&+>=},-#&+>=},-#&+>=},-#&+>=},-#&+++..====",
"   ..+++|====1++|====1++|====1++|====1++|====1++++..    ",
"   ..++++@#$%&+++@#$%&+++@#$%&+++@#$%&+++@#$%&++++..    ",
"   ..+++++++++++++++++++++++++++++++++++++++++++++..    ",
"   ..+++++++++++++++++++++++++++++++++++++++++++++..    ",
"   ..+++++++++++++++++++++++++++++++++++++++++++++..    ",
"   .................................................    ",
"   .................................................    ",
"                                                        ",
"                                                        ",
"                                                        ",
"                                                        ",
"                                                        ",
"                                                        ",
"                                                        "};
