/* XPM */
static const char * spdritem_lee_xpm[] = {
"56 35 17 1",
" 	c None",
".	c #010300",
"+	c #1A1B19",
"@	c #272927",
"#	c #353734",
"$	c #4C4D4B",
"%	c #5C5E5B",
"&	c #686A67",
"*	c #767875",
"=	c #868885",
"-	c #9EA09D",
";	c #BCBEBB",
">	c #C8CAC7",
",	c #D8DAD6",
"'	c #E3E5E2",
")	c #EFF1EE",
"!	c #FDFFFC",
"                                                        ",
"                                                        ",
"                                                        ",
"                                                        ",
"                                                        ",
"                                                        ",
"                                                        ",
"                                                        ",
"        !!!!!!!!!!!!!!!!!!!!!!!!!!!!!!!!!!!!!!!!        ",
"        !!!!!!!!!!!!!!!!!!!!!!!!!!!!!!!!!!!!!!!!        ",
"        !!!!#########!!!!!!!!!!!!!!!!!!!!!!!!!!!        ",
"        !!!!++....+.+!!!!!!!!!!!!!!!!!!!%+'!!!!!        ",
"        !!!!!!!=.=!!!!!!!!!!!!!!!!!!!!!!$.,!!!!!        ",
"        !!!!!!!=.=!!!!!!)>)!!!)')!!!''))$.>)!!!!        ",
"        !!!!!!!=.=!!!!!&...%)!;.@)!>.+)%...=!!!!        ",
"        !!!!!!!=.=!!!!&.#*#.%!!%.=!@.;!,#.-,!!!!        ",
"        !!!!!!!=.=!!!).@)!!@.'!)+.&.&!!!$.,!!!!!        ",
"        !!!!!!!=.=!!!,.#---#.;!!;..+)!!!$.,!!!!!        ",
"        !!!!!!!=.=!!!;.......;!!!@.*!!!!$.,!!!!!        ",
"        !!!!!!!=.=!!!,.$,,,,,)!!=...,!!!$.'!!!!!        ",
"        !!!!!!!=.=!!!).+)!!>)!!,.+-.#!!!$.,!!!!!        ",
"        !!!!!!!=.=!!!!*.+%$.#!!#.-!$.=!!&.@-!!!!        ",
"        !!!!!!!=.=!!!!!=+..#>!=.$!!'..,!'#.=!!!!        ",
"        !!!!!!!!!!!!!!!!!))!!!!!!!!!!!!!!!!!!!!!        ",
"        !!!!!!!!!!!!!!!!!!!!!!!!!!!!!!!!!!!!!!!!        ",
"        !!!!!!!!!!!!!!!!!!!!!!!!!!!!!!!!!!!!!!!!        ",
"        !!!!!!!!!!!!!!!!!!!!!!!!!!!!!!!!!!!!!!!!        ",
"                                                        ",
"                                                        ",
"                                                        ",
"                                                        ",
"                                                        ",
"                                                        ",
"                                                        ",
"                                                        "};
