/* XPM */
static const char * spdritem_dkr_xpm[] = {
"56 35 4 1",
" 	c None",
".	c #000000",
"+	c #848284",
"@	c #DEDFDE",
".......                                                 ",
".........                                               ",
"...........                                             ",
"............                                            ",
"..............                                          ",
"  .............                                         ",
"    .............                      ...              ",
"     ..............                   .+++.             ",
"       .............                  .+++.             ",
"         .............   .            .+++.             ",
"          ..............  ..           ...              ",
"            .............   ..                          ",
"              .............   .....                     ",
"               ..............                           ",
"..........................@@@@@.........................",
".........................@@...@@........................",
"........................@@.....@@.......................",
"........................@@.....@@.......................",
"........................@@.....@@.......................",
".........................@@...@@........................",
"..........................@@@@@.........................",
"                            ..............              ",
"                     ......   .............             ",
"                           ..   .............           ",
"                     ...     .   ..............         ",
"                    .+++.          .............        ",
"                    .+++.            .............      ",
"                    .+++.             ..............    ",
"                     ...                .............   ",
"                                          ............. ",
"                                           .............",
"                                             ...........",
"                                              ..........",
"                                                ........",
"                                                  ......"};
