/* XPM */
static const char * spdritem_fer_xpm[] = {
"22 22 2 1",
" 	c None",
".	c #DD0000",
"                      ",
"                      ",
"                      ",
"                      ",
"                      ",
" .................... ",
" .................... ",
" .................... ",
" .................... ",
" .................... ",
" .................... ",
" .................... ",
" .................... ",
" .................... ",
" .................... ",
" .................... ",
" .................... ",
" .................... ",
"                      ",
"                      ",
"                      ",
"                      "};
