/* XPM */
static const char * spdritem_trv_xpm[] = {
"22 22 3 1",
" 	c None",
".	c #C6C3C6",
"+	c #000000",
"                      ",
"                      ",
"                      ",
"                      ",
"                      ",
" ........+++......... ",
" ........+++......... ",
" ........+++......... ",
" ........+++......... ",
" ........+++......... ",
" ........+++......... ",
" ........+++......... ",
" ........+++......... ",
" ........+++......... ",
" ........+++......... ",
" ........+++......... ",
" ........+++......... ",
" ........+++......... ",
"                      ",
"                      ",
"                      ",
"                      "};
