/* XPM */
static const char * spdritem_shb_xpm[] = {
"56 35 3 1",
" 	c None",
".	c #000000",
"+	c #C60000",
".......                     .+++++++++++++++.+++++++++..",
"........                   .+++++++++++++++.++++++++++++",
"..........                 .+++++++++++++++.++++++++++++",
"............              .+++++++++++++++.+++++++++++++",
"..............           .++++++++++++++++.+++++++++++++",
"  .............          .+++++++++++++++.++++++++++++++",
"   ..............       .++++++++++++++++.++++++++++++++",
"     ..............     .+++++++++++++++.++++++++++++++.",
"      ...............  .+++++++++++++++.++++++++++++++. ",
"        ...............++++++++++++++++.++++++++++++++. ",
"          .............+++++++++++++++.++++++++++++++.  ",
"           ...........++++++++++++++++.++++++++++++++.  ",
"             .........+++++++++++++++.++++++++++++++.   ",
"              .......+++++++++++++++.++++++++++++++.    ",
"                ....++++++++++++++++.++++++++++++++.    ",
"                  ..+++++++++++++++.++++++++++++++.     ",
"                  .++++++++++++++++.++++++++++++++.     ",
"                  .+++++++++++++++.++++++++++++++.      ",
"                 .++++++++++++++++.+++++++++++++.       ",
"                .++++++++++++++++.++++++++++++++.       ",
"                .+++++++++++++++.++++++++++++++.        ",
"               .++++++++++++++++.++++++++++++++.        ",
"               .+++++++++++++++.++++++++++++++.         ",
"              .++++++++++++++++.+++++++++++++.          ",
"               ..+++++++++++++.++++++++++++++.          ",
"                 ..++++++++++.++++++++++++++.           ",
"                   .+++++++++.++++++++++++++.           ",
"                    ..++++++.++++++++++++++.            ",
"                      ..++++.+++++++++++++.             ",
"                        .++.++++++++++++++.             ",
"                         ...+++++++++++++.              ",
"                          ..+++++++++++++.              ",
"                            ..++++++++++.               ",
"                              ..+++++++.                ",
"                                .++++++.               ."};
