/* XPM */
static const char * spdritem_krh_xpm[] = {
"56 35 2 1",
" 	c None",
".	c #000000",
".......                                           ......",
".........                                       ........",
"...........                                   ..........",
"............                                 ...........",
"..............                             .............",
"  .............                           ............. ",
"    .............                       .............   ",
"     ..............                   ..............    ",
"       .............                 .............      ",
"         .............             .............        ",
"          ..............         ..............         ",
"            .............       .............           ",
"              .............   .............             ",
"               ...........................              ",
"                 .......................                ",
"                  .....................                 ",
"                    .................                   ",
"                      .............                     ",
"                    .................                   ",
"                  .....................                 ",
"                 .......................                ",
"               ...........................              ",
"              .............   .............             ",
"            .............       .............           ",
"          ..............         ..............         ",
"         .............             .............        ",
"       .............                 .............      ",
"     ..............                   ..............    ",
"    .............                       .............   ",
"  .............                           ............. ",
"..............                             .............",
"............                                 ...........",
"...........                                   ..........",
".........                                       ........",
".......                                           ......"};
