/* XPM */
static const char * spdritem_tur_xpm[] = {
"32 32 3 1",
" 	c None",
".	c #848284",
"+	c #000000",
"                                ",
"                                ",
"           ..                   ",
"           ...                  ",
"            ...                 ",
"             ...                ",
"              ...               ",
"               ...              ",
"                ...             ",
"                 ...            ",
"                  ..            ",
"                  ..            ",
"                  ..            ",
"+++++++++++++++   ..            ",
"+++++++++++++++   ..            ",
"+++++++++++++++   ..            ",
"+++++++++++++++   ..            ",
"+++++++++++++++   ..            ",
"+++++++++++++++   ..            ",
"+++++++++++++++   ..            ",
"                  ..            ",
"                  ..            ",
"                  ..            ",
"                 ...            ",
"                ...             ",
"               ...              ",
"              ...               ",
"             ...                ",
"            ...                 ",
"           ...                  ",
"           ..                   ",
"                                "};
