/* XPM */
static const char * spdritem_lcr_xpm[] = {
"56 35 5 1",
" 	c None",
".	c #848284",
"+	c #000000",
"@	c #DEDFDE",
"#	c #E7E300",
"                     ...............                    ",
"                     ...............                    ",
"                     ...............                    ",
"                     ...............                    ",
"        ++           ...............          ++        ",
"       +..+          ...............         +..+       ",
"      +....+         ...............        +....+      ",
"      +....+         ...............        +....+      ",
"       +..+          ...............         +..+       ",
"        ++           ...............          ++        ",
"                     ...............                    ",
"                     ...............                    ",
"                     ...............                    ",
"                     ...............                    ",
"++++++++++++++++++++++++++@@@@@+++++++++++++++++++++++++",
"+++++++++++++++++++++++++@@###@@++++++++++++++++++++++++",
"++++++++++++++++++++++++@@#####@@+++++++++++++++++++++++",
"++++++++++++++++++++++++@@#####@@+++++++++++++++++++++++",
"++++++++++++++++++++++++@@#####@@+++++++++++++++++++++++",
"+++++++++++++++++++++++++@@###@@++++++++++++++++++++++++",
"++++++++++++++++++++++++++@@@@@+++++++++++++++++++++++++",
"                     ...............                    ",
"                     ...............                    ",
"                     ...............                    ",
"                     ...............                    ",
"                     ...............                    ",
"                     ...............                    ",
"                     ...............                    ",
"                     ...............                    ",
"                     ...............                    ",
"                     ...............                    ",
"                     ...............                    ",
"                     ...............                    ",
"                     ...............                    ",
"                     ...............                    "};
