/* XPM */
static const char * spdritem_hs_xpm[] = {
"56 35 5 1",
" 	c None",
".	c #000000",
"+	c #848284",
"@	c #DEDFDE",
"#	c #FF0000",
"                                                        ",
"                                                        ",
"                                                        ",
"                                                        ",
"                                             ......     ",
"                                             .++++.     ",
"                                             .++++.     ",
"                                             .++++.     ",
"                                             .++++.     ",
"                                             ......     ",
"                                                        ",
"                                                        ",
"                                                        ",
"                                                        ",
"............................................@@@@@.......",
"...........................................@@###@@......",
"..........................................@@#####@@.....",
"..........................................@@#####@@.....",
"..........................................@@#####@@.....",
"...........................................@@###@@......",
"............................................@@@@@.......",
"                                                        ",
"                                                        ",
"                                                        ",
"                                    .............       ",
"                       ...   ..    .###...........      ",
"                      .+++.  ..   .#####...........     ",
"                      .+++.  ......#####...........     ",
"                      .+++.  ..   .#####...........     ",
"                       ...   ..    .###...........      ",
"                                    .............       ",
"                                                        ",
"                                                        ",
"                                                        ",
"                                                        "};
