/* XPM */
static const char * spdritem_ss_xpm[] = {
"56 35 6 1",
" 	c None",
".	c #000000",
"+	c #DEDFDE",
"@	c #636163",
"#	c #FF0000",
"$	c #848284",
"                                                        ",
"                                                        ",
"                                                        ",
"                                                        ",
"                                                        ",
"                                                        ",
"                                                        ",
"                                                        ",
"                                                        ",
"                                                        ",
"                                                        ",
"                                                        ",
"                                                        ",
"                                                        ",
"............................................+++++.......",
"...........................................++@@@++......",
"..........................................++@@@@@++.....",
"..........................................++@@@@@++.....",
"..........................................++@@@@@++.....",
"...........................................++@@@++......",
"............................................+++++.......",
"                                                        ",
"                                                        ",
"                                                        ",
"                                     .............      ",
"                         ...   ..   ...........##..     ",
"                        .$$$.  ..   ...........##..     ",
"                        .$$$.  ................##..     ",
"                        .$$$.  ..   ...........##..     ",
"                         ...   ..   ...........##..     ",
"                                     .............      ",
"                                                        ",
"                                                        ",
"                                                        ",
"                                                        "};
