/* XPM */
static const char * spdritem_clt_xpm[] = {
"32 32 2 1",
" 	c None",
".	c #000000",
"                            ....",
"                           .....",
"                          ......",
"                         .......",
"                        ........",
"                       ........ ",
"                      ........  ",
"                     ........   ",
"                    ........    ",
"                   ........     ",
"                  ........      ",
"                 ........       ",
"                ........        ",
".......................         ",
"......................          ",
".....................           ",
"....................            ",
"...................             ",
"..................              ",
"                                ",
"                                ",
"                                ",
"                                ",
"                                ",
"                                ",
"                                ",
"                                ",
"                                ",
"                                ",
"                                ",
"                                ",
"                                "};
