/* XPM */
static const char * spdritem_tug_xpm[] = {
"56 35 3 1",
" 	c None",
".	c #848284",
"+	c #000000",
"                                                        ",
"                                                        ",
"                                                        ",
"                    ..                                  ",
"                    ...                                 ",
"                     ...                                ",
"                      ...                               ",
"                       ...                              ",
"                        ...                             ",
"                         ...                            ",
"                          ...                           ",
"                           ..                           ",
"                           ..                           ",
"                           ..                           ",
"++++++++++++++++++++++++   ..                           ",
"++++++++++++++++++++++++   ..                           ",
"++++++++++++++++++++++++   ..                           ",
"++++++++++++++++++++++++   ..                           ",
"++++++++++++++++++++++++   ..                           ",
"++++++++++++++++++++++++   ..                           ",
"++++++++++++++++++++++++   ..                           ",
"                           ..                           ",
"                           ..                           ",
"                           ..                           ",
"                          ...                           ",
"                         ...                            ",
"                        ...                             ",
"                       ...                              ",
"                      ...                               ",
"                     ...                                ",
"                    ...                                 ",
"                    ..                                  ",
"                                                        ",
"                                                        ",
"                                                        "};
