/* XPM */
static const char * spdritem_tbr_xpm[] = {
"22 22 33 1",
" 	c None",
".	c #C6C3C6",
"+	c #716F71",
"@	c #000000",
"#	c #B8B5B8",
"$	c #6D6B6D",
"%	c #6B6A6B",
"&	c #0D0D0D",
"*	c #979597",
"=	c #2A2A2A",
"-	c #010101",
";	c #3C3B3C",
">	c #BFBCBF",
",	c #666466",
"'	c #0C0C0C",
")	c #121212",
"!	c #747274",
"~	c #999799",
"{	c #202020",
"]	c #444344",
"^	c #B9B6B9",
"/	c #B8B6B8",
"(	c #5E5D5E",
"_	c #030303",
":	c #1C1C1C",
"<	c #9B989B",
"[	c #C5C2C5",
"}	c #141314",
"|	c #090909",
"1	c #4B4A4B",
"2	c #BBB9BB",
"3	c #242324",
"4	c #989698",
"                      ",
"                      ",
"                      ",
"                      ",
"                      ",
" ........+@@#........ ",
" ........+@@#........ ",
" ........+@@#........ ",
" ........+@@#........ ",
" ........+@@#........ ",
" ........$@@#........ ",
" .......%&@@#........ ",
" .....*=-@@;>........ ",
" ...>,'@@)!.......... ",
" ..~{@@@]^........... ",
" /(_@@:<[............ ",
" }@@|12.............. ",
" @@34................ ",
"                      ",
"                      ",
"                      ",
"                      "};
