/* XPM */
static const char * spdritem_wel_xpm[] = {
"56 35 4 1",
" 	c None",
".	c #000000",
"+	c #DEDFDE",
"@	c #848284",
"                                                 .......",
"                                               .........",
"                                              ..........",
"                                            ............",
"                                           .............",
"                                         .............. ",
"                                        .............   ",
"                                      ..............    ",
"                                     .............      ",
"                                   .............        ",
"                                 ..............         ",
"                                .............           ",
"                              .............             ",
"                            ..............              ",
"..........................+++++.........................",
".........................++...++........................",
"........................++.....++.......................",
"........................++.....++.......................",
"........................++.....++.......................",
".........................++...++........................",
"..........................+++++.........................",
"                                                        ",
"                                                        ",
"                                                        ",
"                           ...                          ",
"                          .@@@.                         ",
"                          .@@@.                         ",
"                          .@@@.                         ",
"                           ...                          ",
"                                                        ",
"                                                        ",
"                                                        ",
"                                                        ",
"                                                        ",
"                                                        "};
