/* XPM */
static const char * spdritem_tau_xpm[] = {
"22 22 6 1",
" 	c None",
".	c #00A000",
"+	c #000000",
"@	c #FFFFFF",
"#	c #009C00",
"$	c #636363",
"                      ",
"                      ",
"                      ",
"                      ",
"                      ",
" .................... ",
" .................... ",
" .................... ",
" .................... ",
" .++++++++++++++++++. ",
" .+@@@@@@@@@@@@@@@@+. ",
" .+@+@+@@+@@++@+++@+. ",
" .+@+@+@+@@+@@@@+@@+. ",
" #+@+@+@++@+@+@@+@@+# ",
" .+@@+@@+@@+@+@@+@@+. ",
" .+@@@@@@@@@$@@@@@@+. ",
" .++++++++++++++++++. ",
" .................... ",
"                      ",
"                      ",
"                      ",
"                      "};
