/* XPM */
static const char * spdritem_vs_xpm[] = {
"56 35 3 1",
" 	c None",
".	c #000000",
"+	c #FFFF00",
"                                                        ",
"                                                        ",
"                                                        ",
"                                                        ",
"                                                        ",
"                                                        ",
"                                                        ",
"                                                        ",
"                                                        ",
"                                                        ",
"                                                        ",
"                                                        ",
"                                                        ",
"                                                        ",
"........................................................",
"........................................................",
"........................................................",
"........................................................",
"........................................................",
"........................................................",
"........................................................",
"                                                        ",
"                                                        ",
"                                                        ",
"                                      ..........        ",
"                                 ..   .++........       ",
"                                 ..   .++.........      ",
"                                 ..................     ",
"                                 ..    ..++........     ",
"                                 ..     .++........     ",
"                                         ..........     ",
"                                                        ",
"                                                        ",
"                                                        ",
"                                                        "};
