/* XPM */
static const char * spdritem_kur_xpm[] = {
"22 22 28 1",
" 	c None",
".	c #C6C3C6",
"+	c #000000",
"@	c #302F30",
"#	c #B8B5B8",
"$	c #0D0D0D",
"%	c #6B6A6B",
"&	c #010101",
"*	c #2A2A2A",
"=	c #898789",
"-	c #9B989B",
";	c #2D2C2D",
">	c #515051",
",	c #B9B6B9",
"'	c #686768",
")	c #0E0E0E",
"!	c #202020",
"~	c #817F81",
"{	c #A29FA2",
"]	c #323132",
"^	c #444344",
"/	c #B8B6B8",
"(	c #BBB9BB",
"_	c #656465",
":	c #090909",
"<	c #141314",
"[	c #989698",
"}	c #242324",
"                      ",
"                      ",
"                      ",
"                      ",
"                      ",
" .................... ",
" .................... ",
" .................... ",
" .................... ",
" .................... ",
" ++++++++++@#........ ",
" +++++++++++$%....... ",
" ++++++++++$+&*=..... ",
" ..........-;+++>,... ",
" ...........,')++!~.. ",
" .............{]+++^/ ",
" ..............(_:++< ",
" ................[}++ ",
"                      ",
"                      ",
"                      ",
"                      "};
