/* XPM */
static const char * spdritem_tbl_xpm[] = {
"32 32 2 1",
" 	c None",
".	c #000000",
"              ......            ",
"              ......            ",
"              ......            ",
"              ......            ",
"              ......            ",
"              ......            ",
"              ......            ",
"              ......            ",
"              ......            ",
"              ......            ",
"              ......            ",
"              ......            ",
"              ......            ",
"              ......            ",
"              ......            ",
"              .......           ",
"              ........          ",
"              .........         ",
"               .........        ",
"                .........       ",
"                 .........      ",
"                  .........     ",
"                   .........    ",
"                    .........   ",
"                     .........  ",
"                      ......... ",
"                       .........",
"                        ........",
"                         .......",
"                          ......",
"                           .....",
"                            ...."};
