/* XPM */
static const char * spdritem_krl_xpm[] = {
"22 22 25 1",
" 	c None",
".	c #C6C3C6",
"+	c #989698",
"@	c #242324",
"#	c #000000",
"$	c #BBB9BB",
"%	c #4B4A4B",
"&	c #090909",
"*	c #141314",
"=	c #C5C2C5",
"-	c #9B989B",
";	c #1C1C1C",
">	c #030303",
",	c #5E5D5E",
"'	c #B8B6B8",
")	c #B9B6B9",
"!	c #444344",
"~	c #202020",
"{	c #999799",
"]	c #747274",
"^	c #121212",
"/	c #0C0C0C",
"(	c #666466",
"_	c #BFBCBF",
":	c #0D0D0D",
"                      ",
"                      ",
"                      ",
"                      ",
"                      ",
" ................+@## ",
" ..............$%&##* ",
" ............=-;##>,' ",
" ...........)!###~{.. ",
" ..........]^##/(_... ",
" ##############:##### ",
" #################### ",
" #####:############## ",
" ..._(/##^].......... ",
" ..{~###!)........... ",
" ',>##;-=............ ",
" *##&%$.............. ",
" ##@+................ ",
"                      ",
"                      ",
"                      ",
"                      "};
