/* XPM */
static const char * spdritem_zp_xpm[] = {
"56 35 4 1",
" 	c None",
".	c #000000",
"+	c #969496",
"@	c #848284",
"                                                        ",
"                                                        ",
"                                                        ",
"                                                        ",
"                                                        ",
"                                                        ",
"                                                        ",
"                                                        ",
"                                                        ",
"                                                        ",
"                                                        ",
"                                                        ",
"                                                        ",
"                                                        ",
"........................................................",
"........................................................",
"........................................................",
"........................................................",
"........................................................",
"........................................................",
"........................................................",
"          ++                                            ",
"                                        ...........     ",
"                                        ....@.@....     ",
"                                        ..@.....@..     ",
"                          ...    ..     ...........     ",
"                         .@@@.   ..     .@.......@.     ",
"                         .@@@.   ..................     ",
"                         .@@@.   ..     .@.......@.     ",
"                          ...    ..     ...........     ",
"                                        ..@.....@..     ",
"                                        ....@.@....     ",
"                                        ...........     ",
"                                                        ",
"                                                        "};
