/* XPM */
static const char * spdritem_vsr_xpm[] = {
"32 32 5 1",
" 	c None",
".	c #000000",
"+	c #FFFF00",
"@	c #DEDFDE",
"#	c #636163",
"                                ",
"    ....                        ",
"   .....                        ",
"  ......                        ",
" .......                        ",
" .......                        ",
" .......                        ",
" .......                        ",
" .......                        ",
" ....++.                        ",
" ....++.                        ",
" .++...                         ",
" .++..      ...........@@@@@....",
" ....       ..........@@###@@...",
"    .       .........@@#####@@..",
"    .       .........@@#####@@..",
"    .       .........@@#####@@..",
"  .....     ..........@@###@@...",
"  .....     ...........@@@@@....",
"                                ",
"                                ",
"                                ",
"                                ",
"                                ",
"                                ",
"                                ",
"                                ",
"                                ",
"                                ",
"                                ",
"                                ",
"                                "};
