/* XPM */
static const char *viewroute_xpm[]={
"22 22 4 1",
". c None",
"a c #000000",
"b c #ff0000",
"c c #ffff00",
"......................",
"......................",
"..............aaaaaaa.",
".............aaaaaaaa.",
"............aaa.......",
"...........aaa........",
"..........aaa.........",
".aaaaaaaabbbbbbbbbbbb.",
".aaaaaaabbbbbbbbbbbbb.",
".......bbb............",
"......bbb.............",
".bbbbbbbaaaaaaaaaaaaa.",
".bbbbbbaaaaaaaaaaaaaa.",
"..........aaa.........",
"...........aaa........",
"............aaa.......",
".ccccccccccccccc......",
".cccccccccccccccc.....",
"...............ccc....",
"................ccc...",
".................ccc..",
"......................"};
